!!!!SEGMENT: pl-cz--iii-574--001-003_rodowski-aleksander--missa-in-c-gloria.krn
!!!cenid: 18xx:1021
!!!COM: Rodowski, Aleksander
!!!COM-rismID: pe30009627
!!!CDT: <1790->1810
!!!CNT: Polish
!!!OPR: Missa in C
!!!OTL: Gloria
!!!OMV: 003
!!!PDT: 1801
!!!AGN: Sacred; Mass
!!!SMS-siglum: PL-CZ
!!!SMS-shelfmark: III-574
!!!SMS-shelfwork: 001-003 M
!!!SMS-variant:
!!!SMS-altvar:
!!!NIFC-rismSourceID: 300001098
!!!NIFC-rismChildID: 300001098
!!!NIFC-islandoraID: pl-cz:39292
!!!URL-pdf-islandora: https://repozytorium.nifc.pl/islandora/object/pl-cz%3A39292/datastream/PDF/view
!!!URL-scan: https://polish.musicsources.pl/pl/lokalizacje/galeria/rekopisy/6956/1 @EN{Scan on Polish Music Sources Website} @PL{Skany w portalu Dziedzictwo Muzyki Polskiej w otwartym dostępie}
!!!IIIF:
!!!ONB-nifc: UWAGA: części Mszy: Kyrie, Christe, Gloria, Credo, Sanctus, Pleni, Benedictus, Agnus Dei
!!!AIN: 1 alto 1 bass 2 clars 2 cor 2 oboe 1 organ 1 soprn 1 timpa 2 tromb 2 violn
!!!key: C
**kern	**fba	**kern	**dynam	**kern	**dynam	**kern	**text	**kern	**text	**kern	**text	**kern	**kern	**kern	**kern	**kern	**kern	**kern	**dynam	**kern	**kern
*	*	*group4	*	*group4	*	*group3	*	*group3	*	*group3	*	*	*group2	*group2	*group2	*group2	*group1	*group1	*	*group1	*group1
*part15	*part15	*part14	*part14	*part13	*part13	*part12	*part12	*part11	*part11	*part10	*part10	*part9	*part8	*part7	*part6	*part5	*part4	*part3	*part3	*part2	*part1
*staff15	*	*staff14	*	*staff13	*	*staff12	*staff12	*staff11	*staff11	*staff10	*staff10	*staff9	*staff8	*staff7	*staff6	*staff5	*staff4	*staff3	*	*staff2	*staff1
*I"Organo.	*	*I"Violino Secondo.	*	*I"Violino Primo.	*	*I"Basſo.	*	*I"Alto.	*	*I"Canto.	*	*I"Tympano in C.	*I"Clarino Secondo in C.	*I"Clarino Primo. in C:	*I"Cornu Secondo.	*I"Cornu Primo. ex. C.	*I"Clarinetto Secondo. in B.	*I"Clarinetto Primo. in B.	*	*I"Oboe Secondo.	*I"Oboe Primo.
*I'org	*	*I'vl 2	*	*I'vl 1	*	*I'B	*	*I'A	*	*I'S	*	*I'timp	*I'clno 2 in C	*I'clno 1 in C	*I'cor 2	*I'cor 1 in C	*I'cl 2 in B|b	*I'cl 1 in B|b	*	*I'ob 2	*I'ob 1
*Iorgan	*	*Ivioln	*	*Ivioln	*	*Ibass	*	*Ialto	*	*Isoprn	*	*Itimpa	*Itromb	*Itromb	*Icor	*Icor	*Iclars	*Iclars	*	*Ioboe	*Ioboe
*ICklav	*	*ICstr	*	*ICstr	*	*ICvox	*	*ICvox	*	*ICvox	*	*ICidio	*ICbras	*ICbras	*ICbras	*ICbras	*ICww	*ICww	*	*ICww	*ICww
*IGcont	*	*	*	*	*	*IGcoro	*	*IGcoro	*	*IGcoro	*	*	*	*	*	*	*	*	*	*	*
*clefF4	*	*clefG2	*	*clefG2	*	*clefF4	*	*clefC3	*	*clefC1	*	*clefF4	*clefG2	*clefG2	*clefG2	*clefG2	*clefG2	*clefG2	*	*clefG2	*clefG2
*	*	*	*	*	*	*	*	*	*	*	*	*	*	*	*ITrd0c0	*ITrd0c0	*ITrd1c2	*ITrd1c2	*	*	*
*k[]	*	*k[]	*	*k[]	*	*k[]	*	*k[]	*	*k[]	*	*k[]	*k[]	*k[]	*k[]	*k[]	*k[]	*k[]	*	*k[]	*k[]
*C:	*	*C:	*	*C:	*	*C:	*	*C:	*	*C:	*	*C:	*C:	*C:	*C:	*C:	*C:	*C:	*	*C:	*C:
*M4/4	*	*M4/4	*	*M4/4	*	*M4/4	*	*M4/4	*	*M4/4	*	*M4/4	*M4/4	*M4/4	*M4/4	*M4/4	*M4/4	*M4/4	*	*M4/4	*M4/4
*met(c)	*	*met(c)	*	*met(c)	*	*met(c)	*	*met(c)	*	*met(c)	*	*met(c)	*met(c)	*met(c)	*met(c)	*met(c)	*met(c)	*met(c)	*	*met(c)	*met(c)
=1	=1	=1	=1	=1	=1	=1	=1	=1	=1	=1	=1	=1	=1	=1	=1	=1	=1	=1	=1	=1	=1
!LO:TX:t=P:problem=mixed beam	!	!	!	!	!	!	!	!	!	!	!	!	!	!	!	!	!	!	!	!	!
!LO:TX:b:i:t=Tutti	!	!	!	!	!	!	!	!	!	!	!	!	!	!	!	!	!	!	!	!	!
!LO:TX:a:Bi:t=allo	!	!LO:TX:a:Bi:t=Allegro moderato.	!LO:DY:t=for.:rj	!LO:TX:a:Bi:t=Allo moderato.	!	!LO:TX:a:Bi:t=Moderato.	!	!	!	!LO:TX:a:Bi:t=moderato.	!	!LO:TX:a:Bi:t=Allo moderato.	!	!LO:TX:a:Bi:t=allo moderato.	!	!LO:TX:a:Bi:t=allo moderato.	!LO:TX:a:Bi:t=Allo Moderato.	!	!	!LO:TX:a:Bi:t=allo moderato.	!LO:TX:a:Bi:t=Allo Moderato.
8C/L	5 3_	4e 4G/	f	4ccc 4cc\	.	4c\	Glo-	4ee\	Glo-	4gg\	Glo-	4C/	4c/	4cc\	4c/	4cc\	4ee\	4gg\	.	4ee\	4gg\
8c\	.	.	.	.	.	.	.	.	.	.	.	.	.	.	.	.	.	.	.	.	.
!	!	!	!	!	!LO:DY:t=forte.	!	!	!	!	!	!	!	!	!	!	!	!	!	!	!	!
8c\	.	8eL 8G/	.	8.cc\L	f	8c\	-ri-	8cc\	-ri-	8ee\	-ri-	8C/L	8e/L	8cc\L	8e/L	8cc\L	8cc\L	8ee\L	.	8cc\L	8ee\L
8c\J	.	8eJ 8G/	.	.	.	8c\	-a	8cc\	-a	8ee\	-a	8C/J	8e/J	8cc\J	8e/J	8cc\J	8cc\J	8ee\J	.	8cc\J	8ee\J
.	.	.	.	16cc\Jk	.	.	.	.	.	.	.	.	.	.	.	.	.	.	.	.	.
*2\right	*	*	*	*	*	*	*	*	*	*	*	*	*	*	*	*	*	*	*	*	*
*tremolo	*	*	*	*	*	*	*	*	*	*	*	*	*	*	*	*	*	*	*	*	*
8c\L	.	16eLL 16G/	.	16cc\LL	.	4c\	in	4cc\	in	4ee\	in	4C/	4e/	4cc\	4e/	4cc\	4cc\	4ee\	.	4cc\	4ee\
.	.	16B/	.	16dd\	.	.	.	.	.	.	.	.	.	.	.	.	.	.	.	.	.
8c\	.	16c/	.	16ee\	.	.	.	.	.	.	.	.	.	.	.	.	.	.	.	.	.
.	.	16d/JJ	.	16ff\JJ	.	.	.	.	.	.	.	.	.	.	.	.	.	.	.	.	.
8c\	.	16e/LL	.	16gg\LL	.	4c\	e-	4ee\	ex-	4gg\	ex-	4r	4r	4r	4r	4r	4ee\	4gg\	.	4ee\	4gg\
.	.	16f/	.	16aa\	.	.	.	.	.	.	.	.	.	.	.	.	.	.	.	.	.
8c\J	.	16d/	.	16bb\	.	.	.	.	.	.	.	.	.	.	.	.	.	.	.	.	.
.	.	16e/JJ	.	16ccc\JJ	.	.	.	.	.	.	.	.	.	.	.	.	.	.	.	.	.
=2	=2	=2	=2	=2	=2	=2	=2	=2	=2	=2	=2	=2	=2	=2	=2	=2	=2	=2	=2	=2	=2
!	!	!	!	!	!	!	!	!	!	!	!	!LO:TX:a:t=7.	!LO:TX:a:t=7.	!LO:TX:b:t=7	!LO:TX:a:t=1.	!	!	!	!	!	!
8c\L	6 4	4f/	.	4aa\	.	4c\	-cel-	4ff\	-cel-	4aa\	-cel-	00r	00r	00r	1r	1r	4ff\	4aa\	.	4ff\	4aa\
8c\	.	.	.	.	.	.	.	.	.	.	.	.	.	.	.	.	.	.	.	.	.
8c\	.	16f/LL	.	16aa\LL	.	4c\	-ſis	4ff\	-sis	4aa\	-sis	.	.	.	.	.	4ff\	4aa\	.	4ff\	4aa\
.	.	16g/	.	16bb\	.	.	.	.	.	.	.	.	.	.	.	.	.	.	.	.	.
8c\J	.	16a/	.	16ccc\	.	.	.	.	.	.	.	.	.	.	.	.	.	.	.	.	.
.	.	16f/JJ	.	16bb\JJ	.	.	.	.	.	.	.	.	.	.	.	.	.	.	.	.	.
8c\L	5 3	4f/	.	4aa\	.	4c\	De-	4ff\	De-	4aa\	De-	.	.	.	.	.	4ff\	4aa\	.	4ff\	4aa\
8c\	.	.	.	.	.	.	.	.	.	.	.	.	.	.	.	.	.	.	.	.	.
8c\	.	4e/	.	4gg\	.	4c\	-o	4ee\	-o	4gg\	-o	.	.	.	.	.	4ee\	4gg\	.	4ee\	4gg\
8c\J	.	.	.	.	.	.	.	.	.	.	.	.	.	.	.	.	.	.	.	.	.
=3	=3	=3	=3	=3	=3	=3	=3	=3	=3	=3	=3	=3	=3	=3	=3	=3	=3	=3	=3	=3	=3
8G\L	7_	4G/	.	4ff\	.	4G\	in	4dd\	in	4ff\	in	.	.	.	4dd\	4ff\	4dd\	4ff\	.	4dd\	4ff\
8G\	.	.	.	.	.	.	.	.	.	.	.	.	.	.	.	.	.	.	.	.	.
8G\	.	8G/L	.	8g/L	.	4G\	ex-	4b\	ex-	4dd\	ex-	.	.	.	8g/L	8dd\L	8b\L	8dd\L	.	8b\L	8dd\L
8G\J	.	8G/J	.	8g/J	.	.	.	.	.	.	.	.	.	.	8g/J	8dd\J	8b\J	8dd\J	.	8b\J	8dd\J
8G\L	.	16G/LL	.	16g/LL	.	4G\	-cel-	4b\	-cel-	4dd\	-cel-	.	.	.	4g/	4dd\	4b\	4dd\	.	4b\	4dd\
.	.	16A/	.	16a/	.	.	.	.	.	.	.	.	.	.	.	.	.	.	.	.	.
8G\	.	16B/	.	16b/	.	.	.	.	.	.	.	.	.	.	.	.	.	.	.	.	.
.	.	16c/JJ	.	16cc/JJ	.	.	.	.	.	.	.	.	.	.	.	.	.	.	.	.	.
8G\	.	16d/LL	.	16dd\LL	.	4G\	-ſis	4dd\	-ſis	4ff\	-ſis	.	.	.	4dd\	4ff\	4dd\	4ff\	.	4dd\	4ff\
.	.	16e/	.	16ee\	.	.	.	.	.	.	.	.	.	.	.	.	.	.	.	.	.
8G\J	.	16f/	.	16ff\	.	.	.	.	.	.	.	.	.	.	.	.	.	.	.	.	.
.	.	16g/JJ	.	16gg\JJ	.	.	.	.	.	.	.	.	.	.	.	.	.	.	.	.	.
*Xtremolo	*	*	*	*	*	*	*	*	*	*	*	*	*	*	*	*	*	*	*	*	*
=4	=4	=4	=4	=4	=4	=4	=4	=4	=4	=4	=4	=4	=4	=4	=4	=4	=4	=4	=4	=4	=4
4C/	x	4e 4G/	.	4ee\	.	(4c\	De-	4cc\	De-	4ee\	De-	.	.	.	4cc\	4ee\	4cc\	4ee\	.	4cc\	4ee\
4C/	.	4e 4G/	.	4cc 4e 4G/	.	4G\	.	8.ee\L	.	8.gg\L	.	.	.	.	8.ee\L	8.gg\L	8.ee\L	8.gg\L	.	8.ee\L	8.gg\L
.	.	.	.	.	.	.	.	16dd\Jk	.	16ee\Jk	.	.	.	.	16dd\Jk	16ff\Jk	16dd\Jk	16ff\Jk	.	16dd\Jk	16ff\Jk
4C/	.	4e 4G/	.	4cc 4e 4G/	.	4C/)	-o.	4cc\	-o	4ee\	-o,	.	.	.	4cc\	4ee\	4cc\	4ee\	.	4cc\	4ee\
4r	.	4r	.	4r	.	4r	.	4r	.	4r	.	.	.	.	4r	4r	4r	4r	.	4r	4r
!	!	!	!	!	!	!	!	!	!	!	!	!	!	!	!	!	!LO:LB:g=original	!	!	!	!
=5	=5	=5	=5	=5	=5	=5	=5	=5	=5	=5	=5	=5	=5	=5	=5	=5	=5	=5	=5	=5	=5
*	*	*	*	*tremolo	*	*	*	*	*	*	*	*	*	*	*	*	*	*	*	*	*
!LO:TX:a:t=4.	!	!LO:TX:a:t=2	!	!	!	!LO:TX:a:t=4.	!	!LO:TX:a:t=4.	!	!LO:TX:a:t=4.	!	!	!	!	!LO:TX:a:t=4.	!LO:TX:a:t=4	!	!LO:TX:a:t=4.	!	!LO:TX:a:t=4.	!LO:TX:a:t=4.
00r	.	0r	.	16c/LL	.	00r	.	00r	.	00r	.	.	.	.	00r	00r	00r	00r	.	00r	00r
.	.	.	.	16c/	.	.	.	.	.	.	.	.	.	.	.	.	.	.	.	.	.
.	.	.	.	16c/	.	.	.	.	.	.	.	.	.	.	.	.	.	.	.	.	.
.	.	.	.	16c/JJ	.	.	.	.	.	.	.	.	.	.	.	.	.	.	.	.	.
.	.	.	.	16e/LL	.	.	.	.	.	.	.	.	.	.	.	.	.	.	.	.	.
.	.	.	.	16e/	.	.	.	.	.	.	.	.	.	.	.	.	.	.	.	.	.
.	.	.	.	16e/	.	.	.	.	.	.	.	.	.	.	.	.	.	.	.	.	.
.	.	.	.	16e/JJ	.	.	.	.	.	.	.	.	.	.	.	.	.	.	.	.	.
.	.	.	.	16g/LL	.	.	.	.	.	.	.	.	.	.	.	.	.	.	.	.	.
.	.	.	.	16g/	.	.	.	.	.	.	.	.	.	.	.	.	.	.	.	.	.
.	.	.	.	16g/	.	.	.	.	.	.	.	.	.	.	.	.	.	.	.	.	.
.	.	.	.	16g/JJ	.	.	.	.	.	.	.	.	.	.	.	.	.	.	.	.	.
.	.	.	.	16cc/LL	.	.	.	.	.	.	.	.	.	.	.	.	.	.	.	.	.
.	.	.	.	16cc/	.	.	.	.	.	.	.	.	.	.	.	.	.	.	.	.	.
.	.	.	.	16cc/	.	.	.	.	.	.	.	.	.	.	.	.	.	.	.	.	.
.	.	.	.	16cc/JJ	.	.	.	.	.	.	.	.	.	.	.	.	.	.	.	.	.
!	!	!	!	!LO:LB:g=original	!	!	!	!	!	!	!	!	!	!	!	!	!	!	!	!	!
=6	=6	=6	=6	=6	=6	=6	=6	=6	=6	=6	=6	=6	=6	=6	=6	=6	=6	=6	=6	=6	=6
.	.	.	.	16dd\LL	.	.	.	.	.	.	.	0r	0r	0r	.	.	.	.	.	.	.
.	.	.	.	16dd\	.	.	.	.	.	.	.	.	.	.	.	.	.	.	.	.	.
.	.	.	.	16dd\	.	.	.	.	.	.	.	.	.	.	.	.	.	.	.	.	.
.	.	.	.	16dd\JJ	.	.	.	.	.	.	.	.	.	.	.	.	.	.	.	.	.
.	.	.	.	16ff\LL	.	.	.	.	.	.	.	.	.	.	.	.	.	.	.	.	.
.	.	.	.	16ff\	.	.	.	.	.	.	.	.	.	.	.	.	.	.	.	.	.
.	.	.	.	16ff\	.	.	.	.	.	.	.	.	.	.	.	.	.	.	.	.	.
.	.	.	.	16ff\JJ	.	.	.	.	.	.	.	.	.	.	.	.	.	.	.	.	.
.	.	.	.	16b\LL	.	.	.	.	.	.	.	.	.	.	.	.	.	.	.	.	.
.	.	.	.	16b\	.	.	.	.	.	.	.	.	.	.	.	.	.	.	.	.	.
.	.	.	.	16b\	.	.	.	.	.	.	.	.	.	.	.	.	.	.	.	.	.
.	.	.	.	16b\JJ	.	.	.	.	.	.	.	.	.	.	.	.	.	.	.	.	.
.	.	.	.	16dd\LL	.	.	.	.	.	.	.	.	.	.	.	.	.	.	.	.	.
.	.	.	.	16dd\	.	.	.	.	.	.	.	.	.	.	.	.	.	.	.	.	.
.	.	.	.	16dd\	.	.	.	.	.	.	.	.	.	.	.	.	.	.	.	.	.
.	.	.	.	16dd\JJ	.	.	.	.	.	.	.	.	.	.	.	.	.	.	.	.	.
=7	=7	=7	=7	=7	=7	=7	=7	=7	=7	=7	=7	=7	=7	=7	=7	=7	=7	=7	=7	=7	=7
*	*	*tremolo	*	*	*	*	*	*	*	*	*	*	*	*	*	*	*	*	*	*	*
.	.	16c/LL	.	16e/LL	.	.	.	.	.	.	.	.	.	.	.	.	.	.	.	.	.
.	.	16c/	.	16e/	.	.	.	.	.	.	.	.	.	.	.	.	.	.	.	.	.
.	.	16c/	.	16e/	.	.	.	.	.	.	.	.	.	.	.	.	.	.	.	.	.
.	.	16c/JJ	.	16e/JJ	.	.	.	.	.	.	.	.	.	.	.	.	.	.	.	.	.
.	.	16e/LL	.	16g/LL	.	.	.	.	.	.	.	.	.	.	.	.	.	.	.	.	.
.	.	16e/	.	16g/	.	.	.	.	.	.	.	.	.	.	.	.	.	.	.	.	.
.	.	16e/	.	16g/	.	.	.	.	.	.	.	.	.	.	.	.	.	.	.	.	.
.	.	16e/JJ	.	16g/JJ	.	.	.	.	.	.	.	.	.	.	.	.	.	.	.	.	.
.	.	16g/LL	.	16cc\LL	.	.	.	.	.	.	.	.	.	.	.	.	.	.	.	.	.
.	.	16g/	.	16cc\	.	.	.	.	.	.	.	.	.	.	.	.	.	.	.	.	.
.	.	16g/	.	16cc\	.	.	.	.	.	.	.	.	.	.	.	.	.	.	.	.	.
.	.	16g/JJ	.	16cc\JJ	.	.	.	.	.	.	.	.	.	.	.	.	.	.	.	.	.
.	.	16cc\LL	.	16ee\LL	.	.	.	.	.	.	.	.	.	.	.	.	.	.	.	.	.
.	.	16cc\	.	16ee\	.	.	.	.	.	.	.	.	.	.	.	.	.	.	.	.	.
.	.	16cc\	.	16ee\	.	.	.	.	.	.	.	.	.	.	.	.	.	.	.	.	.
.	.	16cc\JJ	.	16ee\JJ	.	.	.	.	.	.	.	.	.	.	.	.	.	.	.	.	.
=8	=8	=8	=8	=8	=8	=8	=8	=8	=8	=8	=8	=8	=8	=8	=8	=8	=8	=8	=8	=8	=8
.	.	16dd\LL	.	16ff\LL	.	.	.	.	.	.	.	1r	1r	1r	.	.	.	.	.	.	.
.	.	16dd\	.	16ff\	.	.	.	.	.	.	.	.	.	.	.	.	.	.	.	.	.
.	.	16dd\	.	16ff\	.	.	.	.	.	.	.	.	.	.	.	.	.	.	.	.	.
.	.	16dd\JJ	.	16ff\JJ	.	.	.	.	.	.	.	.	.	.	.	.	.	.	.	.	.
.	.	16ff\LL	.	16aa\LL	.	.	.	.	.	.	.	.	.	.	.	.	.	.	.	.	.
.	.	16ff\	.	16aa\	.	.	.	.	.	.	.	.	.	.	.	.	.	.	.	.	.
.	.	16ff\	.	16aa\	.	.	.	.	.	.	.	.	.	.	.	.	.	.	.	.	.
.	.	16ff\JJ	.	16aa\JJ	.	.	.	.	.	.	.	.	.	.	.	.	.	.	.	.	.
.	.	16dd\LL	.	16dd\LL	.	.	.	.	.	.	.	.	.	.	.	.	.	.	.	.	.
.	.	16dd\	.	16dd\	.	.	.	.	.	.	.	.	.	.	.	.	.	.	.	.	.
.	.	16dd\	.	16dd\	.	.	.	.	.	.	.	.	.	.	.	.	.	.	.	.	.
.	.	16dd\JJ	.	16dd\JJ	.	.	.	.	.	.	.	.	.	.	.	.	.	.	.	.	.
.	.	16b\LL	.	16ff\LL	.	.	.	.	.	.	.	.	.	.	.	.	.	.	.	.	.
.	.	16b\	.	16ff\	.	.	.	.	.	.	.	.	.	.	.	.	.	.	.	.	.
.	.	16b\	.	16ff\	.	.	.	.	.	.	.	.	.	.	.	.	.	.	.	.	.
.	.	16b\JJ	.	16ff\JJ	.	.	.	.	.	.	.	.	.	.	.	.	.	.	.	.	.
*	*	*Xtremolo	*	*	*	*	*	*	*	*	*	*	*	*	*	*	*	*	*	*	*
!	!	!	!	!	!	!LO:LB:g=original	!	!	!	!LO:LB:g=original	!	!	!	!	!	!	!	!LO:LB:g=original	!	!	!
=9	=9	=9	=9	=9	=9	=9	=9	=9	=9	=9	=9	=9	=9	=9	=9	=9	=9	=9	=9	=9	=9
!LO:TX:t=P:problem=mixed beam	!	!	!	!	!	!	!	!	!	!	!	!	!	!	!	!	!	!	!	!	!
8C/L	5 3	4cc 4e 4G/	.	16cc\LL	.	4C/	glo-	4cc\	Glo-	4ee\	Glo-	4C/	4e/	4cc\	4e/	4cc\	4e/	4cc\	.	4e/	4cc\
.	.	.	.	16cc\	.	.	.	.	.	.	.	.	.	.	.	.	.	.	.	.	.
8c\	.	.	.	16cc\	.	.	.	.	.	.	.	.	.	.	.	.	.	.	.	.	.
.	.	.	.	16cc\JJ	.	.	.	.	.	.	.	.	.	.	.	.	.	.	.	.	.
*	*	*tremolo	*	*	*	*	*	*	*	*	*	*	*	*	*	*	*	*	*	*	*
8c\	.	16eLL 16G/	.	16ee\LL	.	8c\	-ri-	8cc\	-ri-	8ee\	-ri-	4C/	4e/	4cc\	4e/	4cc\	4cc\	4ee\	.	4cc\	4ee\
.	.	16e 16G/	.	16ee\	.	.	.	.	.	.	.	.	.	.	.	.	.	.	.	.	.
8c\J	.	16e 16G/	.	16ee\	.	8c\	-a	8cc\	-a	8ee\	-a	.	.	.	.	.	.	.	.	.	.
.	.	16e 16G/	.	16ee\JJ	.	.	.	.	.	.	.	.	.	.	.	.	.	.	.	.	.
*tremolo	*	*	*	*	*	*	*	*	*	*	*	*	*	*	*	*	*	*	*	*	*
8c\L	.	16e 16G/	.	16gg\LL	.	4c\	in	4ee\	in	4gg\	in	4C/	4g/	4ee\	4g/	4ee\	4ee\	4gg\	.	4ee\	4gg\
.	.	16e 16G/	.	16gg\	.	.	.	.	.	.	.	.	.	.	.	.	.	.	.	.	.
8c\	.	16e 16G/	.	16gg\	.	.	.	.	.	.	.	.	.	.	.	.	.	.	.	.	.
.	.	16eJJ 16G/	.	16gg\JJ	.	.	.	.	.	.	.	.	.	.	.	.	.	.	.	.	.
8c\	.	16eLL 16G/	.	16ccc\LL	.	4c\	ex-	4cc\	ex-	4ee\	ex-	4C/	4e/	4cc\	4e/	4cc\	4cc\	4ee\	.	4cc\	4ee\
.	.	16e 16G/	.	16ccc\	.	.	.	.	.	.	.	.	.	.	.	.	.	.	.	.	.
8c\J	.	16e 16G/	.	16ccc\	.	.	.	.	.	.	.	.	.	.	.	.	.	.	.	.	.
.	.	16eJJ 16G/	.	16ccc\JJ	.	.	.	.	.	.	.	.	.	.	.	.	.	.	.	.	.
*Xtremolo	*	*	*	*Xtremolo	*	*	*	*	*	*	*	*	*	*	*	*	*	*	*	*	*
!LO:LB:g=original	!	!	!	!	!	!	!	!LO:LB:g=original	!	!	!	!	!	!	!	!	!	!	!	!LO:LB:g=original	!LO:LB:g=original
=10	=10	=10	=10	=10	=10	=10	=10	=10	=10	=10	=10	=10	=10	=10	=10	=10	=10	=10	=10	=10	=10
*	*	*	*	*	*	*	*	*	*	*	*	*	*	*	*2\right	*2\right	*2\right	*2\right	*	*2\right	*2\right
!	!	!	!	!	!	!	!	!	!	!	!	!	!	!LO:TX:a:t=1.	!	!	!	!	!	!	!
8G\L	7_ 5_	16fLL 16G/	.	4bb\	.	4G\	-cel-	4dd\	-cel-	4ff\	-cel-	1r	1r	1r	2dd\	2ff\	2dd\	2ff\	.	2dd\	2ff\
.	.	16f 16G/	.	.	.	.	.	.	.	.	.	.	.	.	.	.	.	.	.	.	.
8G\	.	16f 16G/	.	.	.	.	.	.	.	.	.	.	.	.	.	.	.	.	.	.	.
.	.	16f 16G/	.	.	.	.	.	.	.	.	.	.	.	.	.	.	.	.	.	.	.
8d\	.	16f 16G/	.	16bb\LL	.	4d\	-sis	4dd\	-ſis	4ff\	-sis	.	.	.	.	.	.	.	.	.	.
.	.	16f 16G/	.	16ccc\	.	.	.	.	.	.	.	.	.	.	.	.	.	.	.	.	.
8d\J	.	16f 16G/	.	16ddd\	.	.	.	.	.	.	.	.	.	.	.	.	.	.	.	.	.
.	.	16fJJ 16G/	.	16ccc\JJ	.	.	.	.	.	.	.	.	.	.	.	.	.	.	.	.	.
8B\L	.	16fLL 16G/	.	16bb\LL	.	4B\	De-	4b\	De-	4dd\	De-	.	.	.	2g/	2dd\	2b\	2dd\	.	2b\	2dd\
.	.	16f 16G/	.	16aa\	.	.	.	.	.	.	.	.	.	.	.	.	.	.	.	.	.
8B\	.	16f 16G/	.	16gg\	.	.	.	.	.	.	.	.	.	.	.	.	.	.	.	.	.
.	.	16f 16G/	.	16ff\JJ	.	.	.	.	.	.	.	.	.	.	.	.	.	.	.	.	.
8G\	.	16f 16G/	.	16ee\LL	.	(4G\	.	4b\	-o	4dd\	-o	.	.	.	.	.	.	.	.	.	.
.	.	16f 16G/	.	16dd\	.	.	.	.	.	.	.	.	.	.	.	.	.	.	.	.	.
8G\J	.	16f 16G/	.	16cc\	.	.	.	.	.	.	.	.	.	.	.	.	.	.	.	.	.
.	.	16fJJ 16G/	.	16b\JJ	.	.	.	.	.	.	.	.	.	.	.	.	.	.	.	.	.
*	*	*Xtremolo	*	*	*	*	*	*	*	*	*	*	*	*	*	*	*	*	*	*	*
!	!	!	!	!	!	!	!	!	!	!	!	!	!	!	!LO:LB:g=original	!	!	!	!	!	!
=11	=11	=11	=11	=11	=11	=11	=11	=11	=11	=11	=11	=11	=11	=11	=11	=11	=11	=11	=11	=11	=11
*	*	*	*	*tremolo	*	*	*	*	*	*	*	*	*	*	*	*	*	*	*	*	*
!LO:TX:t=P:problem=mixed beam	!	!LO:TX:t=P:problem=takty nr 11-12 zapisane repetycją	!	!	!	!	!	!	!	!	!	!	!	!	!	!	!	!	!	!	!
8C/L	5 3	4ccyy 4eyy 4G/yy	.	16cc\LL	.	4C/)	-o	4cc\	glo-	4ee\	glo-	4C/	4e/	4cc\	4e/	4cc\	4e/	4cc\	.	4e/	4cc\
.	.	.	.	16cc\	.	.	.	.	.	.	.	.	.	.	.	.	.	.	.	.	.
8c\	.	.	.	16cc\	.	.	.	.	.	.	.	.	.	.	.	.	.	.	.	.	.
.	.	.	.	16cc\JJ	.	.	.	.	.	.	.	.	.	.	.	.	.	.	.	.	.
*	*	*tremolo	*	*	*	*	*	*	*	*	*	*	*	*	*	*	*	*	*	*	*
8c\	.	16eLLyy 16G/yy	.	16ee\LL	.	8c\	glo-	8cc\	-ri-	8ee\	-ri-	4C/	4e/	4cc\	4e/	4cc\	4cc\	4ee\	.	4cc\	4ee\
.	.	16eyy 16G/yy	.	16ee\	.	.	.	.	.	.	.	.	.	.	.	.	.	.	.	.	.
8c\J	.	16eyy 16G/yy	.	16ee\	.	8c\	-ri-	8cc\	-a	8ee\	-a	.	.	.	.	.	.	.	.	.	.
.	.	16eyy 16G/yy	.	16ee\JJ	.	.	.	.	.	.	.	.	.	.	.	.	.	.	.	.	.
*tremolo	*	*	*	*	*	*	*	*	*	*	*	*	*	*	*	*	*	*	*	*	*
8c\L	.	16eyy 16G/yy	.	16gg\LL	.	4c\	-a	4ee\	in	4gg\	in	4C/	4g/	4ee\	4g/	4ee\	4ee\	4gg\	.	4ee\	4gg\
.	.	16eyy 16G/yy	.	16gg\	.	.	.	.	.	.	.	.	.	.	.	.	.	.	.	.	.
8c\	.	16eyy 16G/yy	.	16gg\	.	.	.	.	.	.	.	.	.	.	.	.	.	.	.	.	.
.	.	16eJJyy 16G/yy	.	16gg\JJ	.	.	.	.	.	.	.	.	.	.	.	.	.	.	.	.	.
8c\	.	16eLLyy 16G/yy	.	16ccc\LL	.	4c\	in	4cc\	ex-	4ee\	ex-	4C/	4e/	4cc\	4e/	4cc\	4cc\	4ee\	.	4cc\	4ee\
.	.	16eyy 16G/yy	.	16ccc\	.	.	.	.	.	.	.	.	.	.	.	.	.	.	.	.	.
8c\J	.	16eyy 16G/yy	.	16ccc\	.	.	.	.	.	.	.	.	.	.	.	.	.	.	.	.	.
.	.	16eJJyy 16G/yy	.	16ccc\JJ	.	.	.	.	.	.	.	.	.	.	.	.	.	.	.	.	.
*Xtremolo	*	*	*	*Xtremolo	*	*	*	*	*	*	*	*	*	*	*	*	*	*	*	*	*
!	!	!	!	!	!	!	!	!	!	!	!	!	!	!	!	!LO:LB:g=original	!	!	!	!	!
=12	=12	=12	=12	=12	=12	=12	=12	=12	=12	=12	=12	=12	=12	=12	=12	=12	=12	=12	=12	=12	=12
!	!	!	!	!	!	!	!	!	!	!	!	!	!	!LO:TX:a:t=1.	!	!	!	!	!	!	!
8G\L	7_ 5_	16fLLyy 16G/yy	.	4bb\	.	4G\	ex-	4dd\	-cel-	4ff\	-cel-	1r	1r	1r	2dd\	2ff\	2dd\	2ff\	.	2dd\	2ff\
.	.	16fyy 16G/yy	.	.	.	.	.	.	.	.	.	.	.	.	.	.	.	.	.	.	.
8G\	.	16fyy 16G/yy	.	.	.	.	.	.	.	.	.	.	.	.	.	.	.	.	.	.	.
.	.	16fyy 16G/yy	.	.	.	.	.	.	.	.	.	.	.	.	.	.	.	.	.	.	.
8d\	.	16fyy 16G/yy	.	16bb\LL	.	4d\	-cel-	4dd\	-ſis	4ff\	-ſis	.	.	.	.	.	.	.	.	.	.
.	.	16fyy 16G/yy	.	16ccc\	.	.	.	.	.	.	.	.	.	.	.	.	.	.	.	.	.
8d\J	.	16fyy 16G/yy	.	16ddd\	.	.	.	.	.	.	.	.	.	.	.	.	.	.	.	.	.
.	.	16fJJyy 16G/yy	.	16ccc\JJ	.	.	.	.	.	.	.	.	.	.	.	.	.	.	.	.	.
8B\L	.	16fLLyy 16G/yy	.	16bb\LL	.	4B\	-sis	4b\	De-	4dd\	De-	.	.	.	2g/	2dd\	2b\	2dd\	.	2b\	2dd\
.	.	16fyy 16G/yy	.	16aa\	.	.	.	.	.	.	.	.	.	.	.	.	.	.	.	.	.
8B\	.	16fyy 16G/yy	.	16gg\	.	.	.	.	.	.	.	.	.	.	.	.	.	.	.	.	.
.	.	16fyy 16G/yy	.	16ff\JJ	.	.	.	.	.	.	.	.	.	.	.	.	.	.	.	.	.
8G\	.	16fyy 16G/yy	.	16ee\LL	.	4G\	.	4b\	-o	4dd\	-o	.	.	.	.	.	.	.	.	.	.
.	.	16fyy 16G/yy	.	16dd\	.	.	.	.	.	.	.	.	.	.	.	.	.	.	.	.	.
8G\J	.	16fyy 16G/yy	.	16cc\	.	.	.	.	.	.	.	.	.	.	.	.	.	.	.	.	.
.	.	16fJJyy 16G/yy	.	16b\JJ	.	.	.	.	.	.	.	.	.	.	.	.	.	.	.	.	.
!	!	!	!	!LO:LB:g=original	!	!	!	!	!	!	!	!	!	!LO:LB:g=original	!	!	!	!	!	!	!
=13	=13	=13	=13	=13	=13	=13	=13	=13	=13	=13	=13	=13	=13	=13	=13	=13	=13	=13	=13	=13	=13
*	*	*	*	*tremolo	*	*	*	*	*	*	*	*	*	*	*	*	*	*	*	*	*
!LO:TX:t=P:problem=mixed beam	!	!	!	!	!	!	!	!	!	!	!	!	!	!	!	!	!	!	!	!	!
8C/L|>	x	16eLL 16G/	.	16cc\LL	.	4C/	De-	4.cc\	glo-	4.ee\	glo-	4C/	1cc	1ee	1cc	1ee	1cc	1ee	.	1cc	1ee
.	.	16e 16G/	.	16cc\	.	.	.	.	.	.	.	.	.	.	.	.	.	.	.	.	.
8C/|>	.	16e 16G/	.	16cc\	.	.	.	.	.	.	.	.	.	.	.	.	.	.	.	.	.
.	.	16eJJ 16G/	.	16cc\JJ	.	.	.	.	.	.	.	.	.	.	.	.	.	.	.	.	.
8c\|	.	16cc\LL	.	16ccc\LL	.	[4c\	-o	.	.	.	.	4r	.	.	.	.	.	.	.	.	.
.	.	16cc\	.	16ccc\	.	.	.	.	.	.	.	.	.	.	.	.	.	.	.	.	.
8c\J|	.	16cc\	.	16ccc\	.	.	.	8cc\	-ri-	8ee\	-ri-	.	.	.	.	.	.	.	.	.	.
.	.	16cc\JJ	.	16ccc\JJ	.	.	.	.	.	.	.	.	.	.	.	.	.	.	.	.	.
8B\L|	.	16b\LL	.	16bb\LL	.	4c\]	.	4cc\	-a	4ee\	-a	2r	.	.	.	.	.	.	.	.	.
.	.	16b\	.	16bb\	.	.	.	.	.	.	.	.	.	.	.	.	.	.	.	.	.
8B\|	.	16b\	.	16bb\	.	.	.	.	.	.	.	.	.	.	.	.	.	.	.	.	.
.	.	16b\JJ	.	16bb\JJ	.	.	.	.	.	.	.	.	.	.	.	.	.	.	.	.	.
8c\|	.	16cc\LL	.	16ccc\LL	.	4r	.	4r	.	4r	.	.	.	.	.	.	.	.	.	.	.
.	.	16cc\	.	16ccc\	.	.	.	.	.	.	.	.	.	.	.	.	.	.	.	.	.
8c\J|	.	16cc\	.	16ccc\	.	.	.	.	.	.	.	.	.	.	.	.	.	.	.	.	.
.	.	16cc\JJ	.	16ccc\JJ	.	.	.	.	.	.	.	.	.	.	.	.	.	.	.	.	.
!	!	!	!	!	!	!	!	!	!	!	!	!LO:LB:g=original	!	!	!	!	!	!	!	!	!
=14	=14	=14	=14	=14	=14	=14	=14	=14	=14	=14	=14	=14	=14	=14	=14	=14	=14	=14	=14	=14	=14
8A\L|	.	16a/LL	.	16aa\LL	.	4.A\	Glo-	4.cc\	glo-	4.ee\	glo-	4C/	1cc	1ee	1cc	1ee	1cc	1ee	.	1cc	1ee
.	.	16a/	.	16aa\	.	.	.	.	.	.	.	.	.	.	.	.	.	.	.	.	.
8A\|	.	16a/	.	16aa\	.	.	.	.	.	.	.	.	.	.	.	.	.	.	.	.	.
.	.	16a/JJ	.	16aa\JJ	.	.	.	.	.	.	.	.	.	.	.	.	.	.	.	.	.
8c\|	.	16cc\LL	.	16ccc\LL	.	.	.	.	.	.	.	4r	.	.	.	.	.	.	.	.	.
.	.	16cc\	.	16ccc\	.	.	.	.	.	.	.	.	.	.	.	.	.	.	.	.	.
8c\J|	.	16cc\	.	16ccc\	.	8c\	-ri-	8cc\	-ri-	8ee\	-ri-	.	.	.	.	.	.	.	.	.	.
.	.	16cc\JJ	.	16ccc\JJ	.	.	.	.	.	.	.	.	.	.	.	.	.	.	.	.	.
8B\L|	.	16b\LL	.	16bb\LL	.	4c\	-a	4cc\	-a	4ee\	-a	2r	.	.	.	.	.	.	.	.	.
.	.	16b\	.	16bb\	.	.	.	.	.	.	.	.	.	.	.	.	.	.	.	.	.
8B\|	.	16b\	.	16bb\	.	.	.	.	.	.	.	.	.	.	.	.	.	.	.	.	.
.	.	16b\JJ	.	16bb\JJ	.	.	.	.	.	.	.	.	.	.	.	.	.	.	.	.	.
8c\|	.	16cc\LL	.	16ccc\LL	.	4r	.	4r	.	4r	.	.	.	.	.	.	.	.	.	.	.
.	.	16cc\	.	16ccc\	.	.	.	.	.	.	.	.	.	.	.	.	.	.	.	.	.
8c\J|	.	16cc\	.	16ccc\	.	.	.	.	.	.	.	.	.	.	.	.	.	.	.	.	.
.	.	16cc\JJ	.	16ccc\JJ	.	.	.	.	.	.	.	.	.	.	.	.	.	.	.	.	.
!LO:LB:g=original	!	!	!	!	!	!LO:LB:g=original	!	!	!	!LO:LB:g=original	!	!	!	!	!	!	!	!	!	!	!
=15	=15	=15	=15	=15	=15	=15	=15	=15	=15	=15	=15	=15	=15	=15	=15	=15	=15	=15	=15	=15	=15
8G\L|	.	16g\LL	.	16gg\LL	.	4.G\	Glo-	4.cc\	glo-	4.ee\	glo-	4C/	1cc	1ee	1cc	1ee	1cc	1ee	.	1cc	1ee
.	.	16g\	.	16gg\	.	.	.	.	.	.	.	.	.	.	.	.	.	.	.	.	.
8G\|	.	16g\	.	16gg\	.	.	.	.	.	.	.	.	.	.	.	.	.	.	.	.	.
.	.	16g\JJ	.	16gg\JJ	.	.	.	.	.	.	.	.	.	.	.	.	.	.	.	.	.
8c\|	.	16cc\LL	.	16ccc\LL	.	.	.	.	.	.	.	4r	.	.	.	.	.	.	.	.	.
.	.	16cc\	.	16ccc\	.	.	.	.	.	.	.	.	.	.	.	.	.	.	.	.	.
8c\J|	.	16cc\	.	16ccc\	.	8c\	-ri-	8cc\	-ri-	8ee\	-ri-	.	.	.	.	.	.	.	.	.	.
.	.	16cc\JJ	.	16ccc\JJ	.	.	.	.	.	.	.	.	.	.	.	.	.	.	.	.	.
8B\L|	.	16b\LL	.	16bb\LL	.	4c\	-a	4cc\	-a	4ee\	-a	2r	.	.	.	.	.	.	.	.	.
.	.	16b\	.	16bb\	.	.	.	.	.	.	.	.	.	.	.	.	.	.	.	.	.
8B\|	.	16b\	.	16bb\	.	.	.	.	.	.	.	.	.	.	.	.	.	.	.	.	.
.	.	16b\JJ	.	16bb\JJ	.	.	.	.	.	.	.	.	.	.	.	.	.	.	.	.	.
8c\|	.	16cc\LL	.	16ccc\LL	.	4r	.	4r	.	4r	.	.	.	.	.	.	.	.	.	.	.
.	.	16cc\	.	16ccc\	.	.	.	.	.	.	.	.	.	.	.	.	.	.	.	.	.
8c\J|	.	16cc\	.	16ccc\	.	.	.	.	.	.	.	.	.	.	.	.	.	.	.	.	.
.	.	16cc\JJ	.	16ccc\JJ	.	.	.	.	.	.	.	.	.	.	.	.	.	.	.	.	.
!	!	!	!	!	!	!	!	!LO:LB:g=original	!	!	!	!	!LO:LB:g=original	!	!	!	!	!	!	!	!
=16	=16	=16	=16	=16	=16	=16	=16	=16	=16	=16	=16	=16	=16	=16	=16	=16	=16	=16	=16	=16	=16
*tremolo	*	*2\right	*	*2\right	*	*2\right	*	*2\right	*	*2\right	*	*	*	*	*	*	*	*	*	*	*
!LO:TX:a:t=''''	!	!	!	!	!	!	!	!	!	!	!	!LO:TX:a:t=4	!	!LO:TX:a:t=4.	!LO:TX:a:t=2.	!LO:TX:a:t=2.	!	!	!	!	!
8e-X\L|	.	16ee-X\LL	.	16eee-X\LL	.	2e-X\	in	2ee-X\	in	2ee-X\	in	00r	00r	00r	0r	0r	2ee-\	2ee-\	.	2ee-X\	2ee-X\
.	.	16ee-\	.	16eee-\	.	.	.	.	.	.	.	.	.	.	.	.	.	.	.	.	.
8e-\|	.	16ee-\	.	16eee-\	.	.	.	.	.	.	.	.	.	.	.	.	.	.	.	.	.
.	.	16ee-\	.	16eee-\	.	.	.	.	.	.	.	.	.	.	.	.	.	.	.	.	.
8e-\|	.	16ee-\	.	16eee-\	.	.	.	.	.	.	.	.	.	.	.	.	.	.	.	.	.
.	.	16ee-\	.	16eee-\	.	.	.	.	.	.	.	.	.	.	.	.	.	.	.	.	.
8e-\J|	.	16ee-\	.	16eee-\	.	.	.	.	.	.	.	.	.	.	.	.	.	.	.	.	.
.	.	16ee-\JJ	.	16eee-\JJ	.	.	.	.	.	.	.	.	.	.	.	.	.	.	.	.	.
!LO:TX:a:t=''''	!	!	!	!	!	!	!	!	!	!	!	!	!	!	!	!	!	!	!	!	!
8c\L|	.	16cc\LL	.	16ccc\LL	.	2c\	ex-	2cc\	ex-	2cc\	ex-	.	.	.	.	.	2cc\	2cc\	.	2cc\	2cc\
.	.	16cc\	.	16ccc\	.	.	.	.	.	.	.	.	.	.	.	.	.	.	.	.	.
8c\|	.	16cc\	.	16ccc\	.	.	.	.	.	.	.	.	.	.	.	.	.	.	.	.	.
.	.	16cc\	.	16ccc\	.	.	.	.	.	.	.	.	.	.	.	.	.	.	.	.	.
8c\|	.	16cc\	.	16ccc\	.	.	.	.	.	.	.	.	.	.	.	.	.	.	.	.	.
.	.	16cc\	.	16ccc\	.	.	.	.	.	.	.	.	.	.	.	.	.	.	.	.	.
8c\J|	.	16cc\	.	16ccc\	.	.	.	.	.	.	.	.	.	.	.	.	.	.	.	.	.
.	.	16cc\JJ	.	16ccc\JJ	.	.	.	.	.	.	.	.	.	.	.	.	.	.	.	.	.
=17	=17	=17	=17	=17	=17	=17	=17	=17	=17	=17	=17	=17	=17	=17	=17	=17	=17	=17	=17	=17	=17
!LO:TX:a:t=''''	!	!	!	!	!	!	!	!	!	!	!	!	!	!	!	!	!	!	!	!	!
8A-X\L|	.	16a-X/LL	.	16aa-X\LL	.	2A-X\	-cel-	2a-X\	-cel-	2aa-X\	-cel-	.	.	.	.	.	2a-X/	2aa-X\	.	2a-X/	2aa-X\
.	.	16a-/	.	16aa-\	.	.	.	.	.	.	.	.	.	.	.	.	.	.	.	.	.
8A-\|	.	16a-/	.	16aa-\	.	.	.	.	.	.	.	.	.	.	.	.	.	.	.	.	.
.	.	16a-/	.	16aa-\	.	.	.	.	.	.	.	.	.	.	.	.	.	.	.	.	.
8A-\|	.	16a-/	.	16aa-\	.	.	.	.	.	.	.	.	.	.	.	.	.	.	.	.	.
.	.	16a-/	.	16aa-\	.	.	.	.	.	.	.	.	.	.	.	.	.	.	.	.	.
8A-\J|	.	16a-/	.	16aa-\	.	.	.	.	.	.	.	.	.	.	.	.	.	.	.	.	.
.	.	16a-/JJ	.	16aa-\JJ	.	.	.	.	.	.	.	.	.	.	.	.	.	.	.	.	.
!LO:TX:a:t=''''	!	!	!	!	!	!	!	!	!	!	!	!	!	!	!	!	!	!	!	!	!
8F#X\L|	.	16f#X/LL	.	16ff#X\LL	.	2F#X\	-ſis	2f#X\	-ſis	2ff#X\	-sis	.	.	.	.	.	2f#X/	2ff#X\	.	2f#X/	2ff#X\
.	.	16f#/	.	16ff#\	.	.	.	.	.	.	.	.	.	.	.	.	.	.	.	.	.
8F#\|	.	16f#/	.	16ff#\	.	.	.	.	.	.	.	.	.	.	.	.	.	.	.	.	.
.	.	16f#/	.	16ff#\	.	.	.	.	.	.	.	.	.	.	.	.	.	.	.	.	.
8F#\|	.	16f#/	.	16ff#\	.	.	.	.	.	.	.	.	.	.	.	.	.	.	.	.	.
.	.	16f#/	.	16ff#\	.	.	.	.	.	.	.	.	.	.	.	.	.	.	.	.	.
8F#\J|	.	16f#/	.	16ff#\	.	.	.	.	.	.	.	.	.	.	.	.	.	.	.	.	.
.	.	16f#/JJ	.	16ff#\JJ	.	.	.	.	.	.	.	.	.	.	.	.	.	.	.	.	.
!	!	!LO:LB:g=original	!	!	!	!	!	!	!	!	!	!	!	!	!	!	!	!	!	!	!
=18	=18	=18	=18	=18	=18	=18	=18	=18	=18	=18	=18	=18	=18	=18	=18	=18	=18	=18	=18	=18	=18
8G\L	8_ 6_	16gLL 16G/	.	16ee\LL	.	2G\	De-	2g\	De-	1gg	De-	.	.	.	1ee	1gg	1eenX	1gg	.	1een	1gg
.	.	16g 16G/	.	16ccc\	.	.	.	.	.	.	.	.	.	.	.	.	.	.	.	.	.
8G\	.	16g 16G/	.	16ee\	.	.	.	.	.	.	.	.	.	.	.	.	.	.	.	.	.
.	.	16gJJ 16G/	.	16ccc\	.	.	.	.	.	.	.	.	.	.	.	.	.	.	.	.	.
8G\	.	16eLL 16G/	.	16ee\	.	.	.	.	.	.	.	.	.	.	.	.	.	.	.	.	.
.	.	16e 16G/	.	16ccc\	.	.	.	.	.	.	.	.	.	.	.	.	.	.	.	.	.
8G\J	.	16e 16G/	.	16ee\	.	.	.	.	.	.	.	.	.	.	.	.	.	.	.	.	.
.	.	16e 16G/	.	16ccc\JJ	.	.	.	.	.	.	.	.	.	.	.	.	.	.	.	.	.
8G\L	.	16e 16G/	.	16ee\LL	.	2G\	-o	2een\	.	.	.	.	.	.	.	.	.	.	.	.	.
.	.	16e 16G/	.	16ccc\	.	.	.	.	.	.	.	.	.	.	.	.	.	.	.	.	.
8G\	.	16e 16G/	.	16ee\	.	.	.	.	.	.	.	.	.	.	.	.	.	.	.	.	.
.	.	16eJJ 16G/	.	16ccc\	.	.	.	.	.	.	.	.	.	.	.	.	.	.	.	.	.
8G\	.	16eLL 16G/	.	16ee\	.	.	.	.	.	.	.	.	.	.	.	.	.	.	.	.	.
.	.	16e 16G/	.	16ccc\	.	.	.	.	.	.	.	.	.	.	.	.	.	.	.	.	.
8G\J	.	16e 16G/	.	16ee\	.	.	.	.	.	.	.	.	.	.	.	.	.	.	.	.	.
.	.	16eJJ 16G/	.	16ccc\JJ	.	.	.	.	.	.	.	.	.	.	.	.	.	.	.	.	.
=19	=19	=19	=19	=19	=19	=19	=19	=19	=19	=19	=19	=19	=19	=19	=19	=19	=19	=19	=19	=19	=19
8GG/L	7_ 5_	16fLL 16G/	.	16dd\LL	.	2GG/	glo-	1dd	.	1ff	.	.	.	.	1dd	1ff	1dd	1ff	.	1dd	1ff
.	.	16f 16G/	.	16bb\	.	.	.	.	.	.	.	.	.	.	.	.	.	.	.	.	.
8GG/	.	16f 16G/	.	16dd\	.	.	.	.	.	.	.	.	.	.	.	.	.	.	.	.	.
.	.	16f 16G/	.	16bb\	.	.	.	.	.	.	.	.	.	.	.	.	.	.	.	.	.
8GG/	.	16f 16G/	.	16dd\	.	.	.	.	.	.	.	.	.	.	.	.	.	.	.	.	.
.	.	16f 16G/	.	16bb\	.	.	.	.	.	.	.	.	.	.	.	.	.	.	.	.	.
8GG/J	.	16f 16G/	.	16dd\	.	.	.	.	.	.	.	.	.	.	.	.	.	.	.	.	.
.	.	16fJJ 16G/	.	16bb\JJ	.	.	.	.	.	.	.	.	.	.	.	.	.	.	.	.	.
8GG/L	.	16fLL 16G/	.	16dd\LL	.	2GG/	-ri-	.	.	.	.	.	.	.	.	.	.	.	.	.	.
.	.	16f 16G/	.	16bb\	.	.	.	.	.	.	.	.	.	.	.	.	.	.	.	.	.
8GG/	.	16f 16G/	.	16dd\	.	.	.	.	.	.	.	.	.	.	.	.	.	.	.	.	.
.	.	16f 16G/	.	16bb\	.	.	.	.	.	.	.	.	.	.	.	.	.	.	.	.	.
8GG/	.	16f 16G/	.	16dd\	.	.	.	.	.	.	.	.	.	.	.	.	.	.	.	.	.
.	.	16f 16G/	.	16bb\	.	.	.	.	.	.	.	.	.	.	.	.	.	.	.	.	.
8GG/J	.	16f 16G/	.	16dd\	.	.	.	.	.	.	.	.	.	.	.	.	.	.	.	.	.
.	.	16fJJ 16G/	.	16bb\JJ	.	.	.	.	.	.	.	.	.	.	.	.	.	.	.	.	.
*Xtremolo	*	*Xtremolo	*	*Xtremolo	*	*	*	*	*	*	*	*	*	*	*	*	*	*	*	*	*
=20	=20	=20	=20	=20	=20	=20	=20	=20	=20	=20	=20	=20	=20	=20	=20	=20	=20	=20	=20	=20	=20
!LO:TX:t=P:problem=mixed beam	!	!	!	!	!	!	!	!	!	!	!	!	!	!	!	!	!	!	!	!	!
8C/L	x	4e 4G/	.	4ccc 4ee\	.	4C/	-a	4cc\	-o.	4ee\	-o.	8C/L	8ee\L	8ee\L	8ee\L	8ee\L	4cc\	4ee\	.	4cc\	4ee\
8c\	.	.	.	.	.	.	.	.	.	.	.	8C/	8cc\	8cc\	8cc\	8cc\	.	.	.	.	.
!	!	!	!	!	!	!	!	!	!	!	!	!LO:TX:b:t=g	!	!	!	!	!	!	!	!	!
8G\	.	4e 4G/	.	4ccc 4ee\	.	4r	.	4r	.	4r	.	8GG/	8g\	8g\	8g\	8g\	4cc\	4ee\	.	4cc\	4ee\
8E\J	.	.	.	.	.	.	.	.	.	.	.	8C/J	8e\J	8e\J	8e\J	8e\J	.	.	.	.	.
4C/	.	4e 4G/	.	4ccc 4ee\	.	2r	.	2r	.	2r	.	4C/	4c/	4c/	4c/	4c/	4cc\	4ee\	.	4cc\	4ee\
4r	.	4r	.	4r	.	.	.	.	.	.	.	4r	4r	4r	4r	4r	4r	4r	.	4r	4r
!	!	!	!	!	!	!	!	!	!	!	!	!	!	!	!	!	!LO:LB:g=original	!LO:LB:g=original	!	!LO:LB:g=original	!LO:LB:g=original
=21	=21	=21	=21	=21	=21	=21	=21	=21	=21	=21	=21	=21	=21	=21	=21	=21	=21	=21	=21	=21	=21
!LO:TX:b:i:t=pedal.	!	!	!LO:DY:t=piano:rj	!	!LO:DY:t=pia:rj	!LO:TX:a:t=8.	!	!LO:TX:a:t=8.	!	!LO:TX:a:t=8.	!	!	!	!	!	!	!LO:TX:a:i:t=Solo	!LO:TX:a:i:t=Solo	!	!LO:TX:a:i:t=Solo	!LO:TX:a:i:t=Solo
4B\	.	2B/	p	2d/	p	00r	.	00r	.	00r	.	4GG/	4g/	4dd\	4g/	4dd\	2b\	2dd\	.	2b\	2dd\
4G\	.	.	.	.	.	.	.	.	.	.	.	4r	4r	4r	4r	4r	.	.	.	.	.
4B\	.	(8f/L	.	(8a/L	.	.	.	.	.	.	.	2r	2r	2r	2r	2r	(8ff\L	(8aa\L	.	8ff\L	8aa\L
.	.	8e/	.	8g/	.	.	.	.	.	.	.	.	.	.	.	.	8ee\)	8gg\)	.	8ee\	8gg\
4G\	.	8e/	.	8g/	.	.	.	.	.	.	.	.	.	.	.	.	(8ee\	(8gg\	.	8ee\	8gg\
.	.	8d/J)	.	8f/J	.	.	.	.	.	.	.	.	.	.	.	.	8dd\J)	8ff\J)	.	8dd\J	8ff\J
!LO:LB:g=original	!	!	!	!LO:LB:g=original	!	!	!	!	!	!	!	!	!	!	!	!	!	!	!	!	!
=22	=22	=22	=22	=22	=22	=22	=22	=22	=22	=22	=22	=22	=22	=22	=22	=22	=22	=22	=22	=22	=22
!	!	!	!	!	!	!	!	!	!	!	!	!LO:TX:a:t=3.	!LO:TX:a:t=3.	!LO:TX:a:t=3.	!	!	!	!	!	!	!
4E/	.	(8c/L	.	8e/L	.	.	.	.	.	.	.	0r	0r	0r	2r	2r	8cc\L	8ee\L	.	8cc\L	8ee\L
.	.	8B/	.	8d/	.	.	.	.	.	.	.	.	.	.	.	.	8b\	8dd\	.	8b\	8dd\
4C/	.	8c/	.	8e/	.	.	.	.	.	.	.	.	.	.	.	.	8cc\	8ee\	.	8cc\	8ee\
.	.	8d/J)	.	8f/J)	.	.	.	.	.	.	.	.	.	.	.	.	8dd\J	8ff\J	.	8dd\J	8ff\J
4E/	.	4e/	.	4g/	.	.	.	.	.	.	.	.	.	.	4ee\	4gg\	4ee\	4gg\	.	4ee\	4gg\
4C/	.	4e/	.	4g/	.	.	.	.	.	.	.	.	.	.	4ee\	4gg\	4ee\	4gg\	.	4ee\	4gg\
=23	=23	=23	=23	=23	=23	=23	=23	=23	=23	=23	=23	=23	=23	=23	=23	=23	=23	=23	=23	=23	=23
2c\	5 3	4.e/	.	4.g/	.	.	.	.	.	.	.	.	.	.	4.ee\	4gg\	4.ee\	4.gg\	.	4.ee\	4.gg\
.	.	.	.	.	.	.	.	.	.	.	.	.	.	.	.	4ee\	.	.	.	.	.
!	!	!	!	!LO:TX:b:t=e	!	!	!	!	!	!	!	!	!	!	!	!	!	!	!	!	!
.	.	8c/	.	8e/	.	.	.	.	.	.	.	.	.	.	8cc\	.	8cc\	8ee\	.	8cc\	8ee\
4F\	6 3	(8f/L	.	(8a/L	.	.	.	.	.	.	.	.	.	.	4dd\	4gg\	8ff\L	8aa\L	.	8ff\L	8aa\L
.	.	8e/	.	8g/	.	.	.	.	.	.	.	.	.	.	.	.	8ee\	8gg\	.	8ee\	8gg\
4F#X\	5 3	8d/	.	8f/	.	.	.	.	.	.	.	.	.	.	4cc\	4ee\	8dd\	8ff\	.	8dd\	8ff\
.	.	8c/J)	.	8e/J)	.	.	.	.	.	.	.	.	.	.	.	.	8cc\J	8ee\J	.	8cc\J	8ee\J
!	!	!	!	!	!	!	!	!	!	!	!	!	!	!	!LO:LB:g=original	!	!	!	!	!	!
=24	=24	=24	=24	=24	=24	=24	=24	=24	=24	=24	=24	=24	=24	=24	=24	=24	=24	=24	=24	=24	=24
4G\	.	4.c/	.	4e/	.	.	.	.	.	.	.	1r	1r	1r	4.cc\	4.ee\	4.cc\	4.ee\	.	4.cc\	4.ee\
4GG/	.	.	.	4f/	.	.	.	.	.	.	.	.	.	.	.	.	.	.	.	.	.
.	.	8d/	.	.	.	.	.	.	.	.	.	.	.	.	8dd\	8ff\	8dd\	8ff\	.	8dd\	8ff\
!	!	!LO:TX:t=P:problem=mixed beam	!	!LO:TX:t=P:problem=mixed beam	!	!	!	!	!	!	!	!	!	!	!	!	!	!	!	!	!
4G\	.	8B/L	.	8d/L	.	.	.	.	.	.	.	.	.	.	4g/	4dd\	4b\	4dd\	.	4b\	4dd\
!	!	!	!	!	!LO:DY:t=for.	!	!	!	!	!	!	!	!	!	!	!	!	!	!	!	!
.	.	8gg\	.	8gg\	f	.	.	.	.	.	.	.	.	.	.	.	.	.	.	.	.
!	!	!	!LO:DY:t=for.	!	!	!	!	!	!	!	!	!	!	!	!	!	!	!	!	!	!
4r	.	8dd\	f	8dd\	.	.	.	.	.	.	.	.	.	.	4r	4r	4r	4r	.	4r	4r
.	.	8b\J	.	8b\J	.	.	.	.	.	.	.	.	.	.	.	.	.	.	.	.	.
=25	=25	=25	=25	=25	=25	=25	=25	=25	=25	=25	=25	=25	=25	=25	=25	=25	=25	=25	=25	=25	=25
4r	.	4.g/	.	4.g/	.	00r	.	00r	.	00r	.	4GG/	4g/	4dd\	4g/	4dd\	4.b\	4.dd\	.	4.b\	4.dd\
4G\	.	.	.	.	.	.	.	.	.	.	.	4r	4r	4r	4r	4r	.	.	.	.	.
!	!	!	!LO:DY:t=p.	!	!	!	!	!	!	!	!	!	!	!	!	!	!	!	!	!	!
.	.	8f/	p	8a/	.	.	.	.	.	.	.	.	.	.	.	.	8ff\	8aa\	.	8ff\	8aa\
!	!	!	!	!	!LO:DY:t=piano.	!	!	!	!	!	!	!	!	!	!	!	!	!	!	!	!
4B\	.	(8f/L	.	(8a/L	p	.	.	.	.	.	.	2r	2r	2r	2r	2r	(8ff\L	8aa\L	.	8ff\L	8aa\L
.	.	8e/	.	8g/)	.	.	.	.	.	.	.	.	.	.	.	.	8ee\	8gg\	.	8ee\	8gg\
4G\	.	8e/	.	(8g/	.	.	.	.	.	.	.	.	.	.	.	.	8ee\	8gg\	.	8ee\	8gg\
.	.	8d/J)	.	8f/J)	.	.	.	.	.	.	.	.	.	.	.	.	8dd\J)	8ff\J	.	8dd\J	8ff\J
!	!	!LO:LB:g=original	!	!	!	!	!	!	!	!	!	!	!	!	!	!	!	!	!	!	!
=26	=26	=26	=26	=26	=26	=26	=26	=26	=26	=26	=26	=26	=26	=26	=26	=26	=26	=26	=26	=26	=26
!	!	!	!	!	!	!	!	!	!	!	!	!LO:TX:a:t=3.	!LO:TX:a:t=3.	!LO:TX:a:t=3.	!LO:TX:a:t=1.	!LO:TX:a:t=1.	!	!	!	!	!
4r	.	(8c/L	.	(8e/L	.	.	.	.	.	.	.	0r	0r	0r	1r	1r	8cc\L	8ee\L	.	8cc\L	8ee\L
.	.	8B/	.	8d/	.	.	.	.	.	.	.	.	.	.	.	.	8b\	8dd\	.	8b\	8dd\
4C/	.	8c/	.	8e/	.	.	.	.	.	.	.	.	.	.	.	.	8cc\	8ee\	.	8cc\	8ee\
.	.	8d/J)	.	8f/J)	.	.	.	.	.	.	.	.	.	.	.	.	8dd\J	8ff\J	.	8dd\J	8ff\J
4E\	.	4e/	.	4g/	.	.	.	.	.	.	.	.	.	.	.	.	8ee\L	8gg\L	.	8ee\L	8gg\L
.	.	.	.	.	.	.	.	.	.	.	.	.	.	.	.	.	8ff\	8aa\	.	8ff\	8aa\
4G\	.	8f/L	.	8a/L	.	.	.	.	.	.	.	.	.	.	.	.	8dd\	8bb\	.	8dd\	8bb\
.	.	8d/J	.	8b/J	.	.	.	.	.	.	.	.	.	.	.	.	8ee\J	8ccc\J	.	8ee\J	8ccc\J
!	!	!	!	!	!	!	!	!	!	!	!	!	!	!	!	!LO:LB:g=original	!LO:LB:g=original	!LO:LB:g=original	!	!LO:LB:g=original	!LO:LB:g=original
=27	=27	=27	=27	=27	=27	=27	=27	=27	=27	=27	=27	=27	=27	=27	=27	=27	=27	=27	=27	=27	=27
2c\	.	4e/	.	4cc/	.	.	.	.	.	.	.	.	.	.	4r	4r	4ee\	4ee\	.	4ee\	4ee\
.	.	4c/	.	4e/	.	.	.	.	.	.	.	.	.	.	4cc\	4ee\	4cc\	4ee\	.	4cc\	4ee\
4A\	.	4c/	.	4e/	.	.	.	.	.	.	.	.	.	.	4cc\	4ee\	4cc\	4ee\	.	4cc\	4ee\
4F#X\	.	4c/	.	4e/	.	.	.	.	.	.	.	.	.	.	4cc\	4ee\	4cc\	4r	.	4cc\	4r
=28	=28	=28	=28	=28	=28	=28	=28	=28	=28	=28	=28	=28	=28	=28	=28	=28	=28	=28	=28	=28	=28
!	!	!	!	!	!	!	!	!	!	!	!	!	!	!	!	!	!LO:N:vis=4	!	!	!	!
4G\	.	4.e/	.	4.g/	.	.	.	.	.	.	.	1r	1r	1r	4.ee\	4.gg\	4.ee\	4.gg\	.	4.ee\	4.gg\
!LO:TX:t=P:problem=fragment nieczytelny	!	!	!	!	!	!	!	!	!	!	!	!	!	!	!	!	!	!	!	!	!
4ryy	.	.	.	.	.	.	.	.	.	.	.	.	.	.	.	.	.	.	.	.	.
!	!	!LO:N:vis=4	!	!	!	!	!	!	!	!	!	!	!	!	!	!	!	!	!	!	!
.	.	8c/	.	8e/	.	.	.	.	.	.	.	.	.	.	8cc\	8ee\	8cc\	8ee\	.	8cc\	8ee\
4G\	.	4B/	.	4d/	.	.	.	.	.	.	.	.	.	.	4g/	4dd\	4b\	4dd\	.	4b\	4dd\
4r	.	4r	.	4r	.	.	.	.	.	.	.	.	.	.	4r	4r	4r	4r	.	4r	4r
=29	=29	=29	=29	=29	=29	=29	=29	=29	=29	=29	=29	=29	=29	=29	=29	=29	=29	=29	=29	=29	=29
*	*	*	*	*tremolo	*	*	*	*	*	*	*	*	*	*	*	*	*	*	*	*	*
!LO:TX:b:t=Tutti	!	!	!	!	!	!	!	!	!	!	!	!	!	!	!	!	!	!	!	!	!
!LO:TX:t=P:problem=mixed beam	!	!	!	!	!	!	!	!	!	!	!	!	!	!	!	!	!	!LO:TX:a:i:t=Tutti	!	!	!
8C/L	5_ 3_	4cc 4e 4G/	f	16cc\LL	.	4C/	Glo-	4cc\	glo-	4ee\	Glo-	4C/	4e/	4cc\	4e/	4cc\	4e/	4cc\	f	4e/	4cc\
.	.	.	.	16cc\	.	.	.	.	.	.	.	.	.	.	.	.	.	.	.	.	.
8c\	.	.	.	16cc\	.	.	.	.	.	.	.	.	.	.	.	.	.	.	.	.	.
.	.	.	.	16cc\JJ	.	.	.	.	.	.	.	.	.	.	.	.	.	.	.	.	.
*	*	*tremolo	*	*	*	*	*	*	*	*	*	*	*	*	*	*	*	*	*	*	*
8c\	.	16eLL 16G/	.	16ee\LL	.	8c\	-ri-	8cc\	-ri-	8ee\	-ri-	4C/	4e/	4cc\	4e/	4cc\	4cc\	4ee\	.	4cc\	4ee\
.	.	16e 16G/	.	16ee\	.	.	.	.	.	.	.	.	.	.	.	.	.	.	.	.	.
8c\J	.	16e 16G/	.	16ee\	.	8c\	-a	8cc\	-a	8ee\	-a	.	.	.	.	.	.	.	.	.	.
.	.	16e 16G/	.	16ee\JJ	.	.	.	.	.	.	.	.	.	.	.	.	.	.	.	.	.
*tremolo	*	*	*	*	*	*	*	*	*	*	*	*	*	*	*	*	*	*	*	*	*
8c\L	.	16e 16G/	.	16gg\LL	.	4c\	in	4ee\	in	4gg\	in	4C/	4g/	4ee\	4g/	4ee\	4ee\	4gg\	.	4ee\	4gg\
.	.	16e 16G/	.	16gg\	.	.	.	.	.	.	.	.	.	.	.	.	.	.	.	.	.
8c\	.	16e 16G/	.	16gg\	.	.	.	.	.	.	.	.	.	.	.	.	.	.	.	.	.
.	.	16eJJ 16G/	.	16gg\JJ	.	.	.	.	.	.	.	.	.	.	.	.	.	.	.	.	.
!	!	!	!	!	!	!LO:TX:b:i:t=Volti Subito	!	!	!	!	!	!	!	!	!	!	!	!	!	!	!
8c\	.	16eLL 16G/	.	16ccc\LL	.	4c\	ex-	4cc\	ex-	4ee\	ex-	4C/	4e/	4cc\	4e/	4cc\	4cc\	4ee\	.	4cc\	4ee\
.	.	16e 16G/	.	16ccc\	.	.	.	.	.	.	.	.	.	.	.	.	.	.	.	.	.
8c\J	.	16e 16G/	.	16ccc\	.	.	.	.	.	.	.	.	.	.	.	.	.	.	.	.	.
.	.	16eJJ 16G/	.	16ccc\JJ	.	.	.	.	.	.	.	.	.	.	.	.	.	.	.	.	.
*Xtremolo	*	*	*	*Xtremolo	*	*	*	*	*	*	*	*	*	*	*	*	*	*	*	*	*
!	!	!	!	!LO:LB:g=original	!	!LO:PB:g=original	!	!	!	!	!	!	!	!	!	!	!	!	!	!	!
=30	=30	=30	=30	=30	=30	=30	=30	=30	=30	=30	=30	=30	=30	=30	=30	=30	=30	=30	=30	=30	=30
!	!	!	!	!	!	!	!	!	!	!	!	!LO:TX:a:t=1.	!LO:TX:a:t=1.	!	!	!	!	!	!	!	!
8G\L	8 7_	16fLL 16G/	.	4bb\	.	4G\	-cel-	4dd\	-cel-	4ff\	-cel-	1r	1r	1r	2dd\	2ff\	2dd\	2ff\	.	2dd\	2ff\
.	.	16f 16G/	.	.	.	.	.	.	.	.	.	.	.	.	.	.	.	.	.	.	.
8G\	.	16f 16G/	.	.	.	.	.	.	.	.	.	.	.	.	.	.	.	.	.	.	.
.	.	16f 16G/	.	.	.	.	.	.	.	.	.	.	.	.	.	.	.	.	.	.	.
8d\	.	16f 16G/	.	16bb\LL	.	4d\	-ſis	4dd\	-ſis	4ff\	-ſis	.	.	.	.	.	.	.	.	.	.
.	.	16f 16G/	.	16ccc\	.	.	.	.	.	.	.	.	.	.	.	.	.	.	.	.	.
8d\J	.	16f 16G/	.	16ddd\	.	.	.	.	.	.	.	.	.	.	.	.	.	.	.	.	.
.	.	16fJJ 16G/	.	16ccc\JJ	.	.	.	.	.	.	.	.	.	.	.	.	.	.	.	.	.
8B\L	.	16fLL 16G/	.	16bb\LL	.	4B\	De-	4b\	De-	4dd\	De-	.	.	.	2g/	2dd\	2b\	2dd\	.	2b\	2dd\
.	.	16f 16G/	.	16aa\	.	.	.	.	.	.	.	.	.	.	.	.	.	.	.	.	.
8B\	.	16f 16G/	.	16gg\	.	.	.	.	.	.	.	.	.	.	.	.	.	.	.	.	.
.	.	16f 16G/	.	16ff\JJ	.	.	.	.	.	.	.	.	.	.	.	.	.	.	.	.	.
8G\	.	16f 16G/	.	16ee\LL	.	4G\	-o	4b\	-o	4dd\	-o	.	.	.	.	.	.	.	.	.	.
.	.	16f 16G/	.	16dd\	.	.	.	.	.	.	.	.	.	.	.	.	.	.	.	.	.
8G\J	.	16f 16G/	.	16cc\	.	.	.	.	.	.	.	.	.	.	.	.	.	.	.	.	.
.	.	16fJJ 16G/	.	16b\JJ	.	.	.	.	.	.	.	.	.	.	.	.	.	.	.	.	.
*	*	*Xtremolo	*	*	*	*	*	*	*	*	*	*	*	*	*	*	*	*	*	*	*
!LO:LB:g=original	!	!	!	!	!	!	!	!LO:LB:g=original	!	!LO:LB:g=original	!	!LO:LB:g=original	!	!	!	!	!	!	!	!	!
=31	=31	=31	=31	=31	=31	=31	=31	=31	=31	=31	=31	=31	=31	=31	=31	=31	=31	=31	=31	=31	=31
*	*	*	*	*tremolo	*	*	*	*	*ij	*	*ij	*	*	*	*	*	*	*	*	*	*
!LO:TX:t=P:problem=mixed beam	!	!LO:TX:t=P:problem=takty nr 31-32  zapisane repetycją	!	!	!	!	!	!	!	!	!	!	!	!	!	!	!	!	!	!	!
8C/L	5 3	4ccyy 4eyy 4G/yy	.	16cc\LL	.	4C/	glo-	4cc\	Glo-	4ee\	Glo-	4C/	4e/	4cc\	4e/	4cc\	4e/	4cc\	.	4e/	4cc\
.	.	.	.	16cc\	.	.	.	.	.	.	.	.	.	.	.	.	.	.	.	.	.
8c\	.	.	.	16cc\	.	.	.	.	.	.	.	.	.	.	.	.	.	.	.	.	.
.	.	.	.	16cc\JJ	.	.	.	.	.	.	.	.	.	.	.	.	.	.	.	.	.
*	*	*tremolo	*	*	*	*	*	*	*	*	*	*	*	*	*	*	*	*	*	*	*
8c\	.	16eLLyy 16G/yy	.	16ee\LL	.	8c\	-ri-	8cc\	-ri-	8ee\	-ri-	4C/	4e/	4cc\	4e/	4cc\	4cc\	4ee\	.	4cc\	4ee\
.	.	16eyy 16G/yy	.	16ee\	.	.	.	.	.	.	.	.	.	.	.	.	.	.	.	.	.
8c\J	.	16eyy 16G/yy	.	16ee\	.	8c\	-a	8cc\	-a	8ee\	-a	.	.	.	.	.	.	.	.	.	.
.	.	16eyy 16G/yy	.	16ee\JJ	.	.	.	.	.	.	.	.	.	.	.	.	.	.	.	.	.
*tremolo	*	*	*	*	*	*	*	*	*	*	*	*	*	*	*	*	*	*	*	*	*
8c\L	.	16eyy 16G/yy	.	16gg\LL	.	4c\	in	4ee\	in	4gg\	in	4C/	4g/	4ee\	4g/	4ee\	4ee\	4gg\	.	4ee\	4gg\
.	.	16eyy 16G/yy	.	16gg\	.	.	.	.	.	.	.	.	.	.	.	.	.	.	.	.	.
8c\	.	16eyy 16G/yy	.	16gg\	.	.	.	.	.	.	.	.	.	.	.	.	.	.	.	.	.
.	.	16eJJyy 16G/yy	.	16gg\JJ	.	.	.	.	.	.	.	.	.	.	.	.	.	.	.	.	.
8c\	.	16eLLyy 16G/yy	.	16ccc\LL	.	4c\	ex-	4cc\	ex-	4ee\	ex-	4C/	4e/	4cc\	4e/	4cc\	4cc\	4ee\	.	4cc\	4ee\
.	.	16eyy 16G/yy	.	16ccc\	.	.	.	.	.	.	.	.	.	.	.	.	.	.	.	.	.
8c\J	.	16eyy 16G/yy	.	16ccc\	.	.	.	.	.	.	.	.	.	.	.	.	.	.	.	.	.
.	.	16eJJyy 16G/yy	.	16ccc\JJ	.	.	.	.	.	.	.	.	.	.	.	.	.	.	.	.	.
*Xtremolo	*	*	*	*Xtremolo	*	*	*	*	*	*	*	*	*	*	*	*	*	*	*	*	*
!	!	!	!	!	!	!	!	!	!	!	!	!	!	!LO:LB:g=original	!	!	!	!	!	!	!
=32	=32	=32	=32	=32	=32	=32	=32	=32	=32	=32	=32	=32	=32	=32	=32	=32	=32	=32	=32	=32	=32
!	!	!	!	!	!	!	!	!	!	!	!	!LO:TX:a:t=8.	!	!LO:TX:a:t=1.	!	!	!	!	!	!	!
8G\L	8_ 7_	16fLLyy 16G/yy	.	4bb\	.	4G\	-cel-	4dd\	-cel-	4ff\	-cel-	00r	1r	1r	2dd\	2ff\	2dd\	2ff\	.	2dd\	2ff\
.	.	16fyy 16G/yy	.	.	.	.	.	.	.	.	.	.	.	.	.	.	.	.	.	.	.
8G\	.	16fyy 16G/yy	.	.	.	.	.	.	.	.	.	.	.	.	.	.	.	.	.	.	.
.	.	16fyy 16G/yy	.	.	.	.	.	.	.	.	.	.	.	.	.	.	.	.	.	.	.
8d\	.	16fyy 16G/yy	.	16bb\LL	.	4d\	-ſis	4dd\	-ſis	4ff\	-ſis	.	.	.	.	.	.	.	.	.	.
.	.	16fyy 16G/yy	.	16ccc\	.	.	.	.	.	.	.	.	.	.	.	.	.	.	.	.	.
8d\J	.	16fyy 16G/yy	.	16ddd\	.	.	.	.	.	.	.	.	.	.	.	.	.	.	.	.	.
.	.	16fJJyy 16G/yy	.	16ccc\JJ	.	.	.	.	.	.	.	.	.	.	.	.	.	.	.	.	.
8B\L	.	16fLLyy 16G/yy	.	16bb\LL	.	4B\	De-	4b\	De-	4dd\	De-	.	.	.	2g/	2dd\	2b\	2dd\	.	2b\	2dd\
.	.	16fyy 16G/yy	.	16aa\	.	.	.	.	.	.	.	.	.	.	.	.	.	.	.	.	.
8B\	.	16fyy 16G/yy	.	16gg\	.	.	.	.	.	.	.	.	.	.	.	.	.	.	.	.	.
.	.	16fyy 16G/yy	.	16ff\JJ	.	.	.	.	.	.	.	.	.	.	.	.	.	.	.	.	.
8G\	.	16fyy 16G/yy	.	16ee\LL	.	4G\	-o	4b\	-o	4dd\	-o	.	.	.	.	.	.	.	.	.	.
*	*	*	*	*	*	*	*	*	*Xij	*	*Xij	*	*	*	*	*	*	*	*	*	*
.	.	16fyy 16G/yy	.	16dd\	.	.	.	.	.	.	.	.	.	.	.	.	.	.	.	.	.
8G\J	.	16fyy 16G/yy	.	16cc\	.	.	.	.	.	.	.	.	.	.	.	.	.	.	.	.	.
.	.	16fJJyy 16G/yy	.	16b\JJ	.	.	.	.	.	.	.	.	.	.	.	.	.	.	.	.	.
!	!	!	!	!	!	!	!	!	!	!	!	!	!	!	!LO:LB:g=original	!	!	!	!	!	!
=33	=33	=33	=33	=33	=33	=33	=33	=33	=33	=33	=33	=33	=33	=33	=33	=33	=33	=33	=33	=33	=33
*	*	*	*	*tremolo	*	*	*	*	*	*	*	*	*	*	*	*	*	*	*	*	*
!LO:TX:t=P:problem=mixed beam	!	!	!	!	!	!	!	!	!	!	!	!	!	!	!	!	!	!	!	!	!
8C/L|>	x	16eLL 16G/	.	16cc\LL	.	4C/	glo-	4.cc\	glo-	4.ee\	glo-	.	1cc	1ee	1cc	1ee	1cc	1ee	.	1cc	1ee
.	.	16e 16G/	.	16cc\	.	.	.	.	.	.	.	.	.	.	.	.	.	.	.	.	.
8C/|>	.	16e 16G/	.	16cc\	.	.	.	.	.	.	.	.	.	.	.	.	.	.	.	.	.
.	.	16eJJ 16G/	.	16cc\JJ	.	.	.	.	.	.	.	.	.	.	.	.	.	.	.	.	.
8c\|	.	16cc\LL	.	16ccc\LL	.	4c\	-ri-	.	.	.	.	.	.	.	.	.	.	.	.	.	.
.	.	16cc\	.	16ccc\	.	.	.	.	.	.	.	.	.	.	.	.	.	.	.	.	.
8c\J|	.	16cc\	.	16ccc\	.	.	.	8cc\	-ri-	8ee\	-ri-	.	.	.	.	.	.	.	.	.	.
.	.	16cc\JJ	.	16ccc\JJ	.	.	.	.	.	.	.	.	.	.	.	.	.	.	.	.	.
8B\L|	.	16b\LL	.	16bb\LL	.	4c\	-a	4cc\	-a	4ee\	-a	.	.	.	.	.	.	.	.	.	.
.	.	16b\	.	16bb\	.	.	.	.	.	.	.	.	.	.	.	.	.	.	.	.	.
8B\|	.	16b\	.	16bb\	.	.	.	.	.	.	.	.	.	.	.	.	.	.	.	.	.
.	.	16b\JJ	.	16bb\JJ	.	.	.	.	.	.	.	.	.	.	.	.	.	.	.	.	.
8c\|	.	16cc\LL	.	16ccc\LL	.	4r	.	4r	.	4r	.	.	.	.	.	.	.	.	.	.	.
.	.	16cc\	.	16ccc\	.	.	.	.	.	.	.	.	.	.	.	.	.	.	.	.	.
8c\J|	.	16cc\	.	16ccc\	.	.	.	.	.	.	.	.	.	.	.	.	.	.	.	.	.
.	.	16cc\JJ	.	16ccc\JJ	.	.	.	.	.	.	.	.	.	.	.	.	.	.	.	.	.
!	!	!	!	!	!	!	!	!	!	!	!	!	!LO:LB:g=original	!	!	!	!	!	!	!	!
=34	=34	=34	=34	=34	=34	=34	=34	=34	=34	=34	=34	=34	=34	=34	=34	=34	=34	=34	=34	=34	=34
*	*	*	*	*	*	*	*	*	*	*	*ij	*	*	*	*	*	*	*	*	*	*
8A\L|	.	16a\LL	.	16aa\LL	.	4.A\	glo-	4.cc\	glo-	4.ee\	glo-	.	1cc	1ee	1cc	1ee	4cc\	1ee	.	4cc\	1ee
.	.	16a\	.	16aa\	.	.	.	.	.	.	.	.	.	.	.	.	.	.	.	.	.
8A\|	.	16a\	.	16aa\	.	.	.	.	.	.	.	.	.	.	.	.	.	.	.	.	.
.	.	16a\JJ	.	16aa\JJ	.	.	.	.	.	.	.	.	.	.	.	.	.	.	.	.	.
8c\|	.	16cc\LL	.	16ccc\LL	.	.	.	.	.	.	.	.	.	.	.	.	4cc\	.	.	4cc\	.
.	.	16cc\	.	16ccc\	.	.	.	.	.	.	.	.	.	.	.	.	.	.	.	.	.
8c\J|	.	16cc\	.	16ccc\	.	8c\	-ri-	8cc\	-ri-	8ee\	-ri-	.	.	.	.	.	.	.	.	.	.
.	.	16cc\JJ	.	16ccc\JJ	.	.	.	.	.	.	.	.	.	.	.	.	.	.	.	.	.
8B\L|	.	16b\LL	.	16bb\LL	.	4c\	-a	4cc\	-a	4ee\	-a	.	.	.	.	.	4cc\	.	.	4cc\	.
.	.	16b\	.	16bb\	.	.	.	.	.	.	.	.	.	.	.	.	.	.	.	.	.
8B\|	.	16b\	.	16bb\	.	.	.	.	.	.	.	.	.	.	.	.	.	.	.	.	.
.	.	16b\JJ	.	16bb\JJ	.	.	.	.	.	.	.	.	.	.	.	.	.	.	.	.	.
8c\|	.	16cc\LL	.	16ccc\LL	.	4r	.	4r	.	4r	.	.	.	.	.	.	4cc\	.	.	4cc\	.
.	.	16cc\	.	16ccc\	.	.	.	.	.	.	.	.	.	.	.	.	.	.	.	.	.
8c\J|	.	16cc\	.	16ccc\	.	.	.	.	.	.	.	.	.	.	.	.	.	.	.	.	.
.	.	16cc\JJ	.	16ccc\JJ	.	.	.	.	.	.	.	.	.	.	.	.	.	.	.	.	.
!	!	!	!	!LO:LB:g=original	!	!	!	!	!	!	!	!	!	!	!	!	!LO:LB:g=original	!	!	!	!
=35	=35	=35	=35	=35	=35	=35	=35	=35	=35	=35	=35	=35	=35	=35	=35	=35	=35	=35	=35	=35	=35
8G\L|	.	16g/LL	.	16gg\LL	.	4.G\	glo-	4.cc\	glo-	4.ee\	glo-	.	1cc	1ee	1cc	1ee	4cc\	1ee	.	4cc\	1ee
.	.	16g/	.	16gg\	.	.	.	.	.	.	.	.	.	.	.	.	.	.	.	.	.
8G\|	.	16g/	.	16gg\	.	.	.	.	.	.	.	.	.	.	.	.	.	.	.	.	.
.	.	16g/JJ	.	16gg\JJ	.	.	.	.	.	.	.	.	.	.	.	.	.	.	.	.	.
8c\|	.	16cc\LL	.	16ccc\LL	.	.	.	.	.	.	.	.	.	.	.	.	4cc\	.	.	4cc\	.
.	.	16cc\	.	16ccc\	.	.	.	.	.	.	.	.	.	.	.	.	.	.	.	.	.
8c\J|	.	16cc\	.	16ccc\	.	8c\	-ri-	8cc\	-ri-	8ee\	-ri-	.	.	.	.	.	.	.	.	.	.
.	.	16cc\JJ	.	16ccc\JJ	.	.	.	.	.	.	.	.	.	.	.	.	.	.	.	.	.
8B\L|	.	16b\LL	.	16bb\LL	.	4c\	-a	4cc\	-a	4ee\	-a	.	.	.	.	.	4cc\	.	.	4cc\	.
*	*	*	*	*	*	*	*	*	*	*	*Xij	*	*	*	*	*	*	*	*	*	*
.	.	16b\	.	16bb\	.	.	.	.	.	.	.	.	.	.	.	.	.	.	.	.	.
8B\|	.	16b\	.	16bb\	.	.	.	.	.	.	.	.	.	.	.	.	.	.	.	.	.
.	.	16b\JJ	.	16bb\JJ	.	.	.	.	.	.	.	.	.	.	.	.	.	.	.	.	.
8c\|	.	16cc\LL	.	16ccc\LL	.	4r	.	4r	.	4r	.	.	.	.	.	.	4cc\	.	.	4cc\	.
.	.	16cc\	.	16ccc\	.	.	.	.	.	.	.	.	.	.	.	.	.	.	.	.	.
8c\J|	.	16cc\	.	16ccc\	.	.	.	.	.	.	.	.	.	.	.	.	.	.	.	.	.
.	.	16cc\JJ	.	16ccc\JJ	.	.	.	.	.	.	.	.	.	.	.	.	.	.	.	.	.
!	!	!	!	!	!	!LO:LB:g=original	!	!	!	!	!	!	!	!	!	!	!	!	!	!LO:LB:g=original	!
=36	=36	=36	=36	=36	=36	=36	=36	=36	=36	=36	=36	=36	=36	=36	=36	=36	=36	=36	=36	=36	=36
*tremolo	*	*	*	*	*	*	*	*	*	*	*	*	*	*	*	*	*	*	*	*	*
!LO:TX:a:t=''''	!	!	!	!	!	!	!	!	!	!	!	!	!LO:TX:a:t=4	!LO:TX:a:t=4.	!LO:TX:a:t=2.	!LO:TX:a:t=2.	!	!	!	!	!
8e-X\L|	.	16ee-X\LL	.	16eee-X\LL	.	2e-X\	in	2ee-X\	in	2ee-X\	in	00r	00r	00r	0r	0r	2ee-\	2ee-\	.	2ee-X\	2ee-X\
.	.	16ee-\	.	16eee-\	.	.	.	.	.	.	.	.	.	.	.	.	.	.	.	.	.
8e-\|	.	16ee-\	.	16eee-\	.	.	.	.	.	.	.	.	.	.	.	.	.	.	.	.	.
.	.	16ee-\	.	16eee-\	.	.	.	.	.	.	.	.	.	.	.	.	.	.	.	.	.
8e-\|	.	16ee-\	.	16eee-\	.	.	.	.	.	.	.	.	.	.	.	.	.	.	.	.	.
.	.	16ee-\	.	16eee-\	.	.	.	.	.	.	.	.	.	.	.	.	.	.	.	.	.
8e-\J|	.	16ee-\	.	16eee-\	.	.	.	.	.	.	.	.	.	.	.	.	.	.	.	.	.
.	.	16ee-\JJ	.	16eee-\JJ	.	.	.	.	.	.	.	.	.	.	.	.	.	.	.	.	.
!LO:TX:a:t=''''	!	!	!	!	!	!	!	!LO:TX:b:i:t=Volti Subito	!	!	!	!	!	!	!	!	!	!	!	!	!
8c\L|	.	16cc\LL	.	16ccc\LL	.	2c\	ex-	2cc\	ex-	2cc\	ex-	.	.	.	.	.	2cc\	2cc\	.	2cc\	2cc\
.	.	16cc\	.	16ccc\	.	.	.	.	.	.	.	.	.	.	.	.	.	.	.	.	.
8c\|	.	16cc\	.	16ccc\	.	.	.	.	.	.	.	.	.	.	.	.	.	.	.	.	.
.	.	16cc\	.	16ccc\	.	.	.	.	.	.	.	.	.	.	.	.	.	.	.	.	.
8c\|	.	16cc\	.	16ccc\	.	.	.	.	.	.	.	.	.	.	.	.	.	.	.	.	.
.	.	16cc\	.	16ccc\	.	.	.	.	.	.	.	.	.	.	.	.	.	.	.	.	.
8c\J|	.	16cc\	.	16ccc\	.	.	.	.	.	.	.	.	.	.	.	.	.	.	.	.	.
.	.	16cc\JJ	.	16ccc\JJ	.	.	.	.	.	.	.	.	.	.	.	.	.	.	.	.	.
!LO:LB:g=original	!	!LO:LB:g=original	!	!	!	!	!	!LO:PB:g=original	!	!LO:LB:g=original	!	!	!	!	!	!	!	!LO:LB:g=original	!	!	!LO:LB:g=original
=37	=37	=37	=37	=37	=37	=37	=37	=37	=37	=37	=37	=37	=37	=37	=37	=37	=37	=37	=37	=37	=37
8A-X\L	.	16a-X/LL	.	16aa-X\LL	.	2A-X\	-cel-	2a-X\	-cel-	2aa-X\	-cel-	.	.	.	.	.	2a-X/	2aa-X\	.	2a-X/	2aa-X\
.	.	16a-/	.	16aa-\	.	.	.	.	.	.	.	.	.	.	.	.	.	.	.	.	.
8A-\	.	16a-/	.	16aa-\	.	.	.	.	.	.	.	.	.	.	.	.	.	.	.	.	.
.	.	16a-/	.	16aa-\	.	.	.	.	.	.	.	.	.	.	.	.	.	.	.	.	.
8A-\	.	16a-/	.	16aa-\	.	.	.	.	.	.	.	.	.	.	.	.	.	.	.	.	.
.	.	16a-/	.	16aa-\	.	.	.	.	.	.	.	.	.	.	.	.	.	.	.	.	.
8A-\J	.	16a-/	.	16aa-\	.	.	.	.	.	.	.	.	.	.	.	.	.	.	.	.	.
.	.	16a-/JJ	.	16aa-\JJ	.	.	.	.	.	.	.	.	.	.	.	.	.	.	.	.	.
8F#X\L	.	16f#X/LL	.	16ff#X\LL	.	2F#X\	-ſis	2f#X\	-ſis	2ff#X\	-sis	.	.	.	.	.	2f#X/	2ff#X\	.	2f#X/	2ff#X\
.	.	16f#/	.	16ff#\	.	.	.	.	.	.	.	.	.	.	.	.	.	.	.	.	.
8F#\	.	16f#/	.	16ff#\	.	.	.	.	.	.	.	.	.	.	.	.	.	.	.	.	.
.	.	16f#/	.	16ff#\	.	.	.	.	.	.	.	.	.	.	.	.	.	.	.	.	.
8F#\	.	16f#/	.	16ff#\	.	.	.	.	.	.	.	.	.	.	.	.	.	.	.	.	.
.	.	16f#/	.	16ff#\	.	.	.	.	.	.	.	.	.	.	.	.	.	.	.	.	.
8F#\J	.	16f#/	.	16ff#\	.	.	.	.	.	.	.	.	.	.	.	.	.	.	.	.	.
.	.	16f#/JJ	.	16ff#\JJ	.	.	.	.	.	.	.	.	.	.	.	.	.	.	.	.	.
=38	=38	=38	=38	=38	=38	=38	=38	=38	=38	=38	=38	=38	=38	=38	=38	=38	=38	=38	=38	=38	=38
8G\L	6_ 4_	16gLL 16G/	.	16ee\LL	.	2G\	De-	2g\	De-	(1gg	De-	.	.	.	1ee	1gg	1eenX	1gg	.	1een	1gg
.	.	16g 16G/	.	16ccc\	.	.	.	.	.	.	.	.	.	.	.	.	.	.	.	.	.
8G\	.	16g 16G/	.	16ee\	.	.	.	.	.	.	.	.	.	.	.	.	.	.	.	.	.
.	.	16gJJ 16G/	.	16ccc\	.	.	.	.	.	.	.	.	.	.	.	.	.	.	.	.	.
8G\	.	16eLL 16G/	.	16ee\	.	.	.	.	.	.	.	.	.	.	.	.	.	.	.	.	.
.	.	16e 16G/	.	16ccc\	.	.	.	.	.	.	.	.	.	.	.	.	.	.	.	.	.
8G\J	.	16e 16G/	.	16ee\	.	.	.	.	.	.	.	.	.	.	.	.	.	.	.	.	.
.	.	16e 16G/	.	16ccc\JJ	.	.	.	.	.	.	.	.	.	.	.	.	.	.	.	.	.
8G\L	.	16e 16G/	.	16ee\LL	.	2G\	-o	2een\	-o	.	.	.	.	.	.	.	.	.	.	.	.
.	.	16e 16G/	.	16ccc\	.	.	.	.	.	.	.	.	.	.	.	.	.	.	.	.	.
8G\	.	16e 16G/	.	16ee\	.	.	.	.	.	.	.	.	.	.	.	.	.	.	.	.	.
.	.	16eJJ 16G/	.	16ccc\	.	.	.	.	.	.	.	.	.	.	.	.	.	.	.	.	.
8G\	.	16eLL 16G/	.	16ee\	.	.	.	.	.	.	.	.	.	.	.	.	.	.	.	.	.
.	.	16e 16G/	.	16ccc\	.	.	.	.	.	.	.	.	.	.	.	.	.	.	.	.	.
8G\J	.	16e 16G/	.	16ee\	.	.	.	.	.	.	.	.	.	.	.	.	.	.	.	.	.
.	.	16eJJ 16G/	.	16ccc\JJ	.	.	.	.	.	.	.	.	.	.	.	.	.	.	.	.	.
=39	=39	=39	=39	=39	=39	=39	=39	=39	=39	=39	=39	=39	=39	=39	=39	=39	=39	=39	=39	=39	=39
8GG/L	7_ 5_	16fLL 16G/	.	16dd\LL	.	2GG/	glo-	1dd	De	1ff	.	.	.	.	1dd	1ff	1dd	1ff	.	1dd	1ff
.	.	16f 16G/	.	16bb\	.	.	.	.	.	.	.	.	.	.	.	.	.	.	.	.	.
8GG/	.	16f 16G/	.	16dd\	.	.	.	.	.	.	.	.	.	.	.	.	.	.	.	.	.
.	.	16f 16G/	.	16bb\	.	.	.	.	.	.	.	.	.	.	.	.	.	.	.	.	.
8GG/	.	16f 16G/	.	16dd\	.	.	.	.	.	.	.	.	.	.	.	.	.	.	.	.	.
.	.	16f 16G/	.	16bb\	.	.	.	.	.	.	.	.	.	.	.	.	.	.	.	.	.
8GG/J	.	16f 16G/	.	16dd\	.	.	.	.	.	.	.	.	.	.	.	.	.	.	.	.	.
.	.	16fJJ 16G/	.	16bb\JJ	.	.	.	.	.	.	.	.	.	.	.	.	.	.	.	.	.
8GG/L	.	16fLL 16G/	.	16dd\LL	.	2GG/	-ri-	.	.	.	.	.	.	.	.	.	.	.	.	.	.
.	.	16f 16G/	.	16bb\	.	.	.	.	.	.	.	.	.	.	.	.	.	.	.	.	.
8GG/	.	16f 16G/	.	16dd\	.	.	.	.	.	.	.	.	.	.	.	.	.	.	.	.	.
.	.	16f 16G/	.	16bb\	.	.	.	.	.	.	.	.	.	.	.	.	.	.	.	.	.
8GG/	.	16f 16G/	.	16dd\	.	.	.	.	.	.	.	.	.	.	.	.	.	.	.	.	.
.	.	16f 16G/	.	16bb\	.	.	.	.	.	.	.	.	.	.	.	.	.	.	.	.	.
8GG/J	.	16f 16G/	.	16dd\	.	.	.	.	.	.	.	.	.	.	.	.	.	.	.	.	.
.	.	16fJJ 16G/	.	16bb\JJ	.	.	.	.	.	.	.	.	.	.	.	.	.	.	.	.	.
*Xtremolo	*	*Xtremolo	*	*Xtremolo	*	*	*	*	*	*	*	*	*	*	*	*	*	*	*	*	*
=40	=40	=40	=40	=40	=40	=40	=40	=40	=40	=40	=40	=40	=40	=40	=40	=40	=40	=40	=40	=40	=40
!LO:TX:t=P:problem=mixed beam	!	!	!	!	!	!	!	!	!	!	!	!	!	!	!	!	!	!	!	!	!
8C/L	x	4e 4G/	.	4ccc 4ee\	.	4C/	-a	4cc\	.	4ee\)	-o	8C/L	8ee\L	8ee\L	8ee\L	8ee\L	4cc\	4ee\	.	4cc\	4ee\
8c\	.	.	.	.	.	.	.	.	.	.	.	8C/	8cc\	8cc\	8cc\	8cc\	.	.	.	.	.
8G\	.	4e 4G/	.	4ccc 4ee\	.	4r	.	4r	.	4r	.	8GG/	8g\	8g\	8g\	8g\	4cc\	4ee\	.	4cc\	4ee\
8E\J	.	.	.	.	.	.	.	.	.	.	.	8C/J	8e\J	8e\J	8e\J	8e\J	.	.	.	.	.
!	!	!	!	!	!	!	!	!LO:TX:t=P:problem=13 skreślonych taktów	!	!	!	!	!	!	!	!	!	!	!	!	!
!	!	!	!	!	!	!	!	!LO:TX:a:i:t=Finis.	!	!	!	!	!	!	!	!	!	!	!	!	!
4C/	.	4e 4G/	.	4ccc 4ee\	.	2r	.	2r	.	2r	.	4C/	4c/	4c/	4c/	4c/	4cc\	4ee\	.	4cc\	4ee\
!	!	!	!	!LO:TX:b:i:t=Volti Credo.	!	!	!	!	!	!	!	!	!	!	!	!	!	!	!	!	!
!	!	!	!	!LO:TX:a:i:t=40 Tacte.	!	!	!	!	!	!	!	!	!	!	!	!LO:TX:a:i:t=Finis	!	!	!	!	!
4r	.	4r	.	4r	.	.	.	.	.	.	.	4r	4r	4r	4r	4r	4r	4r	.	4r	4r
==	==	==	==	==	==	==	==	==	==	==	==	==	==	==	==	==	==	==	==	==	==
*-	*-	*-	*-	*-	*-	*-	*-	*-	*-	*-	*-	*-	*-	*-	*-	*-	*-	*-	*-	*-	*-
!!!system-decoration: [(g1)][(g2)]<s9>[(g3)][(g4)]<s15>
!!!RDF**kern: > = above
!!!RDF**kern: < = below
!!!RDF**kern: | = vertical stroke
!!!RDF**dynam: f = "for"
!!!ENC: Krzysztof Stępień
!!!END: 2020-10-05
!!!ENC: Andrzej Kubiczek
!!!END: 2022-02-03
!!!YEC: Copyright 2022 Narodowy Instytut Fryderyka Chopina (https://polishscores.org)
!!!YEM: License CC-BY-4.0 (https://creativecommons.org/licenses/by/4.0)
